; G-Code generated by Simplify3D(R) Version 4.0.1
; Oct 6, 2018 at 3:19:59 PM
; Settings Summary
;   processName,box.v2.slice
;   applyToModels,box.v2
;   profileName,HDefault
;   profileVersion,2017-03-01 08:00:00
;   baseProfile,Default (modified)
;   printMaterial,R3D PLA
;   printQuality,Medium
;   printExtruders,
;   extruderName,Primary Extruder
;   extruderToolheadNumber,0
;   extruderDiameter,0.4
;   extruderAutoWidth,0
;   extruderWidth,0.4
;   extrusionMultiplier,1
;   extruderUseRetract,1
;   extruderRetractionDistance,3
;   extruderExtraRestartDistance,0
;   extruderRetractionZLift,0
;   extruderRetractionSpeed,2400
;   extruderUseCoasting,0
;   extruderCoastingDistance,0.2
;   extruderUseWipe,0
;   extruderWipeDistance,5
;   primaryExtruder,0
;   layerHeight,0.2
;   topSolidLayers,3
;   bottomSolidLayers,3
;   perimeterOutlines,2
;   printPerimetersInsideOut,1
;   startPointOption,2
;   startPointOriginX,0
;   startPointOriginY,0
;   sequentialIslands,0
;   spiralVaseMode,0
;   firstLayerHeightPercentage,150
;   firstLayerWidthPercentage,120
;   firstLayerUnderspeed,0.5
;   useRaft,0
;   raftExtruder,0
;   raftTopLayers,3
;   raftBaseLayers,2
;   raftOffset,3
;   raftSeparationDistance,0.14
;   raftTopInfill,100
;   aboveRaftSpeedMultiplier,0.3
;   useSkirt,1
;   skirtExtruder,0
;   skirtLayers,1
;   skirtOutlines,5
;   skirtOffset,2
;   usePrimePillar,0
;   primePillarExtruder,999
;   primePillarWidth,12
;   primePillarLocation,7
;   primePillarSpeedMultiplier,1
;   useOozeShield,0
;   oozeShieldExtruder,999
;   oozeShieldOffset,2
;   oozeShieldOutlines,1
;   oozeShieldSidewallShape,1
;   oozeShieldSidewallAngle,30
;   oozeShieldSpeedMultiplier,1
;   infillExtruder,0
;   internalInfillPattern,Fast Honeycomb
;   externalInfillPattern,Rectilinear
;   infillPercentage,20
;   outlineOverlapPercentage,15
;   infillExtrusionWidthPercentage,100
;   minInfillLength,5
;   infillLayerInterval,1
;   internalInfillAngles,0
;   overlapInternalInfillAngles,0
;   externalInfillAngles,45,-45
;   generateSupport,0
;   supportExtruder,0
;   supportInfillPercentage,30
;   supportExtraInflation,0
;   supportBaseLayers,0
;   denseSupportExtruder,0
;   denseSupportLayers,0
;   denseSupportInfillPercentage,70
;   supportLayerInterval,1
;   supportHorizontalPartOffset,0.3
;   supportUpperSeparationLayers,1
;   supportLowerSeparationLayers,1
;   supportType,0
;   supportGridSpacing,4
;   maxOverhangAngle,45
;   supportAngles,0
;   temperatureName,Primary Extruder,Primary Bed
;   temperatureNumber,0,1
;   temperatureSetpointCount,2,1
;   temperatureSetpointLayers,1,2,1
;   temperatureSetpointTemperatures,205,200,60
;   temperatureStabilizeAtStartup,1,1
;   temperatureHeatedBed,0,1
;   temperatureRelayBetweenLayers,1,1
;   temperatureRelayBetweenLoops,0,0
;   fanLayers,1,2
;   fanSpeeds,0,100
;   blipFanToFullPower,0
;   adjustSpeedForCooling,1
;   minSpeedLayerTime,15
;   minCoolingSpeedSlowdown,30
;   increaseFanForCooling,0
;   minFanLayerTime,45
;   maxCoolingFanSpeed,100
;   increaseFanForBridging,0
;   bridgingFanSpeed,100
;   use5D,1
;   relativeEdistances,0
;   allowEaxisZeroing,1
;   independentExtruderAxes,0
;   includeM10123,1
;   stickySupport,1
;   applyToolheadOffsets,0
;   gcodeXoffset,0
;   gcodeYoffset,0
;   gcodeZoffset,0
;   overrideMachineDefinition,0
;   machineTypeOverride,0
;   strokeXoverride,200
;   strokeYoverride,200
;   strokeZoverride,200
;   originOffsetXoverride,0
;   originOffsetYoverride,0
;   originOffsetZoverride,0
;   homeXdirOverride,-1
;   homeYdirOverride,-1
;   homeZdirOverride,-1
;   flipXoverride,1
;   flipYoverride,-1
;   flipZoverride,1
;   toolheadOffsets,0,0|0,0|0,0|0,0|0,0|0,0
;   overrideFirmwareConfiguration,0
;   firmwareTypeOverride,RepRap (Marlin/Repetier/Sprinter)
;   GPXconfigOverride,r2
;   baudRateOverride,115200
;   overridePrinterModels,0
;   printerModelsOverride
;   startingGcode,;Start Custom GCode,G21          ;metric values,G90          ;absolute positioning,M82         ;set extruder to absolute mode,M107       ;start with the fan off,,G28 ; home all axes,,G1 Z15.0 F6000,G92 E0,G1 F200 E3,G92 E0,,; G0 X5 Y15 Z5 F9000   ;Move to front,; G0 Z0.15                      ;Drop to bed,; G92 E0                         ;Zero Extruder Length,; G1 X40 E25 F500         ;Extrude 25mm of filament in 4cm line,; G92 E0                         ;Zero the extruded lenght,; G1 E-1 F500                ;Retract a little,; G1 X80 F4000             ;Quickly wipe away from filament line,; G1 Z0.3                       ;Raise and begin printing,
;   layerChangeGcode,
;   retractionGcode,
;   toolChangeGcode,
;   endingGcode,;End GCode,M104 S0           ; turn off temperature,M140 S0           ; heated bed heater off,,G91                   ; relative position,G1 E-1 F300     ; retract the filament,G1 Z+0.5 E-5 X-20 Y-20 F{travel_speed}  ; move noozle off last point,G90                   ; absolute position,G28 X                ; move noozle to home position,G1 Y200            ; move bed forward to take out piece,,M84                  ;steppers off,
;   exportFileFormat,gcode
;   celebration,0
;   celebrationSong,Random Song
;   postProcessing,
;   defaultSpeed,3000
;   outlineUnderspeed,0.5
;   solidInfillUnderspeed,0.8
;   supportUnderspeed,0.8
;   rapidXYspeed,7200
;   rapidZspeed,1302
;   minBridgingArea,50
;   bridgingExtraInflation,0
;   bridgingExtrusionMultiplier,1
;   bridgingSpeedMultiplier,1
;   useFixedBridgingAngle,0
;   fixedBridgingAngle,0
;   applyBridgingToPerimeters,0
;   filamentDiameters,1.75|1.75|1.75|1.75|1.75|1.75
;   filamentPricesPerKg,360|46|46|46|46|46
;   filamentDensities,1.24|1.25|1.25|1.25|1.25|1.25
;   useMinPrintHeight,0
;   minPrintHeight,0
;   useMaxPrintHeight,0
;   maxPrintHeight,0
;   useDiaphragm,0
;   diaphragmLayerInterval,20
;   robustSlicing,1
;   mergeAllIntoSolid,0
;   onlyRetractWhenCrossingOutline,1
;   retractBetweenLayers,1
;   useRetractionMinTravel,0
;   retractionMinTravel,3
;   retractWhileWiping,0
;   onlyWipeOutlines,1
;   avoidCrossingOutline,0
;   maxMovementDetourFactor,3
;   toolChangeRetractionDistance,12
;   toolChangeExtraRestartDistance,-0.5
;   toolChangeRetractionSpeed,600
;   externalThinWallType,0
;   internalThinWallType,2
;   thinWallAllowedOverlapPercentage,10
;   singleExtrusionMinLength,1
;   singleExtrusionMinPrintingWidthPercentage,50
;   singleExtrusionMaxPrintingWidthPercentage,200
;   singleExtrusionEndpointExtension,0.2
;   horizontalSizeCompensation,0
G90
M82
M106 S0
M140 S60
M190 S60
M104 S205 T0
M109 S205 T0
;Start Custom GCode
G21          ;metric values
G90          ;absolute positioning
M82         ;set extruder to absolute mode
M107       ;start with the fan off
G28 ; home all axes
G1 Z15.0 F6000
G92 E0
G1 F200 E3
G92 E0
; G0 X5 Y15 Z5 F9000   ;Move to front
; G0 Z0.15                      ;Drop to bed
; G92 E0                         ;Zero Extruder Length
; G1 X40 E25 F500         ;Extrude 25mm of filament in 4cm line
; G92 E0                         ;Zero the extruded lenght
; G1 E-1 F500                ;Retract a little
; G1 X80 F4000             ;Quickly wipe away from filament line
; G1 Z0.3                       ;Raise and begin printing
G92 E0
M102
G1 E-3.0000 F2400
M103
G1 Z0.300 F1302
; process box.v2.slice
; layer 1, Z = 0.300
M105
M105
T0
; tool H0.300 W0.480
; skirt
G1 X32.238 Y33.173 F7200
M101
G1 E0.0000 F720
G92 E0
G1 X33.916 Y31.495 E0.1421 F1500
G1 X34.578 Y31.221 E0.1849
G1 X56.951 Y31.221 E1.5244
G1 X57.612 Y31.495 E1.5672
G1 X59.290 Y33.173 E1.7093
G1 X59.564 Y33.835 E1.7522
G1 X59.564 Y56.208 E3.0916
G1 X59.290 Y56.869 E3.1345
G1 X57.612 Y58.547 E3.2765
G1 X56.951 Y58.821 E3.3194
G1 X34.578 Y58.821 E4.6588
G1 X33.916 Y58.547 E4.7017
G1 X32.238 Y56.869 E4.8438
G1 X31.964 Y56.208 E4.8866
G1 X31.964 Y33.835 E6.2261
G1 X32.238 Y33.173 E6.2689
M103
G1 X32.577 Y33.400 F7200
M101
G92 E0
G1 X34.143 Y31.834 E0.1325 F1500
G1 X34.657 Y31.621 E0.1659
G1 X56.871 Y31.621 E1.4958
G1 X57.386 Y31.834 E1.5291
G1 X58.951 Y33.400 E1.6617
G1 X59.164 Y33.914 E1.6950
G1 X59.164 Y56.128 E3.0249
G1 X58.951 Y56.643 E3.0583
G1 X57.386 Y58.208 E3.1908
G1 X56.871 Y58.421 E3.2241
G1 X34.657 Y58.421 E4.5540
G1 X34.143 Y58.208 E4.5874
G1 X32.577 Y56.643 E4.7199
G1 X32.364 Y56.128 E4.7533
G1 X32.364 Y33.914 E6.0832
G1 X32.577 Y33.400 E6.1165
M103
G1 X32.917 Y33.626 F7200
M101
G92 E0
G1 X34.369 Y32.173 E0.1230 F1500
G1 X34.737 Y32.021 E0.1468
G1 X56.792 Y32.021 E1.4672
G1 X57.159 Y32.173 E1.4910
G1 X58.612 Y33.626 E1.6140
G1 X58.764 Y33.994 E1.6378
G1 X58.764 Y56.048 E2.9582
G1 X58.612 Y56.416 E2.9820
G1 X57.159 Y57.869 E3.1050
G1 X56.792 Y58.021 E3.1289
G1 X34.737 Y58.021 E4.4492
G1 X34.369 Y57.869 E4.4731
G1 X32.916 Y56.416 E4.5961
G1 X32.764 Y56.048 E4.6199
G1 X32.764 Y33.994 E5.9403
G1 X32.916 Y33.626 E5.9641
M103
G1 X33.256 Y33.853 F7200
M101
G92 E0
G1 X34.596 Y32.512 E0.1135 F1500
G1 X34.816 Y32.421 E0.1278
G1 X56.712 Y32.421 E1.4386
G1 X56.933 Y32.512 E1.4529
G1 X58.273 Y33.853 E1.5664
G1 X58.364 Y34.073 E1.5807
G1 X58.364 Y55.969 E2.8915
G1 X58.273 Y56.189 E2.9058
G1 X56.933 Y57.530 E3.0193
G1 X56.712 Y57.621 E3.0336
G1 X34.816 Y57.621 E4.3444
G1 X34.596 Y57.530 E4.3587
G1 X33.256 Y56.189 E4.4722
G1 X33.164 Y55.969 E4.4865
G1 X33.164 Y34.073 E5.7974
G1 X33.256 Y33.853 E5.8116
M103
G1 X33.595 Y34.079 F7200
M101
G92 E0
G1 X34.823 Y32.852 E0.1040 F1500
G1 X34.896 Y32.821 E0.1087
G1 X56.632 Y32.821 E1.4100
G1 X56.706 Y32.852 E1.4148
G1 X57.934 Y34.079 E1.5188
G1 X57.964 Y34.153 E1.5235
G1 X57.964 Y55.889 E2.8248
G1 X57.934 Y55.963 E2.8296
G1 X56.706 Y57.191 E2.9336
G1 X56.632 Y57.221 E2.9383
G1 X34.896 Y57.221 E4.2396
G1 X34.823 Y57.191 E4.2444
G1 X33.595 Y55.963 E4.3484
G1 X33.564 Y55.889 E4.3531
G1 X33.564 Y34.153 E5.6545
G1 X33.595 Y34.079 E5.6592
G92 E0
M102
G1 E-3.0000 F2400
M103
; inner perimeter
G1 X36.484 Y35.741 F7200
M101
G1 E0.0000 F2400
G92 E0
G1 X49.074 Y35.741 E0.7537 F1125
G1 X49.162 Y36.058 E0.7734
G1 X48.521 Y36.443 E0.8182
G1 X48.181 Y36.711 E0.8441
G1 X47.757 Y37.119 E0.8793
G1 X47.222 Y37.697 E0.9265
G1 X46.726 Y38.365 E0.9763
G1 X46.533 Y38.756 E1.0024
G1 X46.442 Y39.142 E1.0261
G1 X45.977 Y39.175 E1.0540
G1 X45.666 Y39.283 E1.0737
G1 X45.354 Y39.482 E1.0959
G1 X45.022 Y39.801 E1.1235
G1 X44.404 Y40.494 E1.1791
G1 X44.075 Y40.904 E1.2105
G1 X43.861 Y41.200 E1.2324
G1 X43.546 Y41.689 E1.2672
G1 X43.374 Y42.087 E1.2932
G1 X43.322 Y42.396 E1.3119
G1 X43.065 Y42.343 E1.3276
G1 X42.666 Y42.395 E1.3517
G1 X42.146 Y42.640 E1.3861
G1 X41.921 Y42.906 E1.4070
G1 X41.591 Y43.400 E1.4426
G1 X41.351 Y43.684 E1.4648
G1 X39.313 Y45.721 E1.6373
G1 X39.123 Y45.888 E1.6524
G1 X38.600 Y46.255 E1.6907
G1 X38.446 Y46.394 E1.7031
G1 X38.308 Y46.619 E1.7189
G1 X38.206 Y46.800 E1.7313
G1 X38.062 Y47.167 E1.7549
G1 X38.013 Y47.404 E1.7694
G1 X37.978 Y47.765 E1.7912
G1 X37.976 Y48.481 E1.8340
G1 X38.040 Y49.049 E1.8683
G1 X38.148 Y49.545 E1.8987
G1 X38.341 Y50.061 E1.9316
G1 X38.606 Y50.464 E1.9605
G1 X38.855 Y50.661 E1.9795
G1 X39.184 Y50.840 E2.0020
G1 X39.738 Y50.860 E2.0351
G1 X40.105 Y50.689 E2.0594
G1 X40.342 Y50.499 E2.0776
G1 X40.527 Y50.250 E2.0961
G1 X40.668 Y49.981 E2.1143
G1 X40.937 Y49.988 E2.1304
G1 X41.044 Y50.220 E2.1457
G1 X41.473 Y51.203 E2.2099
G1 X41.712 Y51.823 E2.2497
G1 X41.761 Y52.027 E2.2623
G1 X41.488 Y52.538 E2.2969
G1 X41.415 Y53.038 E2.3272
G1 X41.550 Y53.570 E2.3600
G1 X41.837 Y53.903 E2.3864
G1 X41.973 Y54.011 E2.3968
G1 X41.872 Y54.301 E2.4151
G1 X36.484 Y54.301 E2.7377
G1 X36.484 Y35.741 E3.8488
G92 E0
M102
G1 E-3.0000 F2400
M103
G1 X43.615 Y46.554 F7200
M101
G1 E0.0000 F2400
G92 E0
G1 X44.352 Y46.377 E0.0454 F1125
G1 X44.735 Y46.090 E0.0741
G1 X44.981 Y45.784 E0.0975
G1 X45.069 Y45.611 E0.1092
G1 X45.334 Y45.611 E0.1251
G1 X45.455 Y45.849 E0.1410
G1 X45.903 Y46.816 E0.2049
G1 X46.211 Y47.616 E0.2562
G1 X46.052 Y48.111 E0.2873
G1 X46.001 Y48.353 E0.3021
G1 X46.003 Y48.587 E0.3162
G1 X46.073 Y48.914 E0.3362
G1 X46.154 Y49.069 E0.3466
G1 X45.923 Y49.294 E0.3659
G1 X45.481 Y49.048 E0.3962
G1 X44.852 Y49.062 E0.4339
G1 X43.615 Y46.554 E0.6013
M103
G1 X46.168 Y49.619 F7200
M101
G92 E0
G1 X46.377 Y49.445 E0.0163 F1125
G1 X46.854 Y49.664 E0.0477
G1 X47.225 Y49.692 E0.0700
G1 X47.521 Y49.634 E0.0880
G1 X47.726 Y49.555 E0.1012
G1 X48.109 Y49.328 E0.1279
G1 X48.593 Y48.973 E0.1638
G1 X49.024 Y48.569 E0.1992
G1 X49.466 Y48.097 E0.2379
G1 X49.750 Y47.734 E0.2655
G1 X50.118 Y47.147 E0.3069
G1 X50.305 Y46.681 E0.3370
G1 X50.336 Y46.499 E0.3480
G1 X50.793 Y46.445 E0.3756
G1 X51.408 Y46.091 E0.4181
G1 X51.746 Y45.829 E0.4437
G1 X52.158 Y45.435 E0.4778
G1 X52.618 Y44.952 E0.5177
G1 X52.920 Y44.580 E0.5464
G1 X53.323 Y43.962 E0.5906
G1 X53.504 Y43.475 E0.6217
G1 X53.545 Y43.152 E0.6412
G1 X53.527 Y42.905 E0.6560
G1 X53.414 Y42.443 E0.6845
G1 X53.251 Y42.188 E0.7026
G1 X53.006 Y41.949 E0.7231
G1 X52.668 Y41.839 E0.7444
G1 X52.386 Y41.826 E0.7613
G1 X52.258 Y41.626 E0.7755
G1 X52.105 Y41.348 E0.7945
G1 X51.491 Y40.080 E0.8788
G1 X50.857 Y38.708 E0.9693
G1 X50.610 Y38.113 E1.0079
G1 X50.596 Y38.032 E1.0128
G1 X50.726 Y37.660 E1.0364
G1 X50.776 Y37.347 E1.0554
G1 X50.763 Y37.111 E1.0695
G1 X50.636 Y36.623 E1.0998
G1 X50.306 Y36.232 E1.1304
G1 X50.014 Y36.059 E1.1507
G1 X50.102 Y35.741 E1.1704
G1 X55.044 Y35.741 E1.4663
G1 X55.044 Y54.301 E2.5775
G1 X43.383 Y54.301 E3.2756
G1 X43.294 Y53.987 E3.2952
G1 X43.675 Y53.752 E3.3219
G1 X44.114 Y53.435 E3.3544
G1 X44.519 Y53.076 E3.3868
G1 X45.341 Y52.236 E3.4571
G1 X45.649 Y51.855 E3.4865
G1 X46.055 Y51.238 E3.5307
G1 X46.249 Y50.766 E3.5612
G1 X46.305 Y50.445 E3.5807
G1 X46.297 Y50.204 E3.5952
G1 X46.252 Y49.952 E3.6105
G1 X46.168 Y49.619 E3.6311
M103
; outer perimeter
G1 X55.524 Y54.781 F7200
M101
G92 E0
G1 X36.004 Y54.781 E1.1686 F750
G1 X36.004 Y35.261 E2.3373
G1 X55.524 Y35.261 E3.5059
G1 X55.524 Y54.781 E4.6745
M103
G1 X48.685 Y48.229 F7200
M101
G92 E0
G1 X49.101 Y47.784 E0.0365 F750
G1 X49.357 Y47.457 E0.0613
G1 X49.689 Y46.929 E0.0987
G1 X49.840 Y46.550 E0.1231
G1 X49.878 Y46.327 E0.1367
G1 X49.864 Y46.107 E0.1499
G1 X49.800 Y45.817 E0.1676
G1 X49.706 Y45.658 E0.1787
G1 X49.577 Y45.517 E0.1901
G1 X49.395 Y45.443 E0.2019
G1 X49.220 Y45.423 E0.2125
G1 X49.074 Y45.436 E0.2212
G1 X49.027 Y45.428 E0.2240
G1 X48.852 Y45.263 E0.2384
G1 X48.746 Y45.114 E0.2494
G1 X48.599 Y44.835 E0.2683
G1 X48.396 Y44.385 E0.2978
G1 X48.309 Y44.141 E0.3133
G1 X48.307 Y44.119 E0.3147
G1 X48.315 Y44.075 E0.3173
G1 X48.459 Y43.865 E0.3326
G1 X48.747 Y43.515 E0.3597
G1 X49.154 Y43.100 E0.3945
G1 X49.265 Y43.009 E0.4031
G1 X49.276 Y43.004 E0.4039
G1 X49.295 Y43.028 E0.4057
G1 X49.482 Y43.420 E0.4317
G1 X49.701 Y43.965 E0.4668
G1 X49.789 Y44.231 E0.4837
G1 X49.844 Y44.487 E0.4993
G1 X49.850 Y44.542 E0.5026
G1 X49.834 Y44.657 E0.5096
G1 X49.719 Y45.071 E0.5353
G1 X49.708 Y45.203 E0.5433
G1 X49.735 Y45.417 E0.5561
G1 X49.803 Y45.646 E0.5705
G1 X49.948 Y45.837 E0.5848
G1 X50.094 Y45.960 E0.5962
G1 X50.294 Y46.021 E0.6088
G1 X50.638 Y45.980 E0.6295
G1 X51.140 Y45.691 E0.6642
G1 X51.433 Y45.465 E0.6863
G1 X51.818 Y45.096 E0.7183
G1 X52.258 Y44.635 E0.7564
G1 X52.531 Y44.297 E0.7824
G1 X52.892 Y43.745 E0.8219
G1 X53.034 Y43.359 E0.8465
G1 X53.063 Y43.139 E0.8598
G1 X53.051 Y42.980 E0.8693
G1 X52.966 Y42.634 E0.8907
G1 X52.876 Y42.493 E0.9007
G1 X52.751 Y42.371 E0.9112
G1 X52.581 Y42.315 E0.9219
G1 X52.424 Y42.308 E0.9313
G1 X52.244 Y42.338 E0.9422
G1 X52.159 Y42.342 E0.9473
G1 X52.157 Y42.340 E0.9475
G1 X52.120 Y42.301 E0.9507
G1 X51.845 Y41.872 E0.9812
G1 X51.679 Y41.568 E1.0019
G1 X51.057 Y40.285 E1.0873
G1 X50.417 Y38.901 E1.1786
G1 X50.146 Y38.248 E1.2209
G1 X50.108 Y38.028 E1.2343
G1 X50.133 Y37.900 E1.2421
G1 X50.259 Y37.542 E1.2648
G1 X50.294 Y37.322 E1.2782
G1 X50.287 Y37.185 E1.2863
G1 X50.199 Y36.849 E1.3072
G1 X49.991 Y36.603 E1.3264
G1 X49.808 Y36.494 E1.3392
G1 X49.597 Y36.474 E1.3519
G1 X49.297 Y36.536 E1.3702
G1 X48.794 Y36.839 E1.4053
G1 X48.497 Y37.074 E1.4280
G1 X48.100 Y37.455 E1.4610
G1 X47.592 Y38.005 E1.5058
G1 X47.137 Y38.616 E1.5514
G1 X46.987 Y38.919 E1.5716
G1 X46.910 Y39.249 E1.5920
G1 X46.901 Y39.490 E1.6064
G1 X46.944 Y39.726 E1.6207
