; generated by Slic3r Prusa Edition 1.41.1-beta+win64 on 2018-09-30 at 23:42:03

; ## Parametros optimizados por Hugo Antolini  -  2018-09-30

; external perimeters extrusion width = 0.45mm
; perimeters extrusion width = 0.45mm
; infill extrusion width = 0.45mm
; solid infill extrusion width = 0.45mm
; top infill extrusion width = 0.40mm
; first layer extrusion width = 0.60mm

M201 X9000 Y9000 Z500 E10000 ; sets maximum accelerations, mm/sec^2
M203 X500 Y500 Z12 E120 ; sets maximum feedrates, mm/sec
M204 P1500 R1500 T1500 ; sets acceleration (P, T) and retract acceleration (R), mm/sec^2
M205 X10.00 Y10.00 Z0.20 E2.50 ; sets the jerk limits, mm/sec
M205 S0 T0 ; sets the minimum extruding and travel feed rate, mm/sec
M107
M190 S65 ; set bed temperature and wait for it to be reached
M104 S205 ; set temperature
G21  ;metric values
G90  ;absolute positioning
M82  ;set extruder to absolute mode
M107  ;start with the fan off

G28  ; home all axes

G0 X5 Y15 Z5 F9000  ;Move to front
G0 Z0.15  ;Drop to bed
G92 E0  ;Zero Extruder Length
G1 X40 E25 F500  ;Extrude 25mm of filament in 4cm line
G92 E0  ;Zero the extruded lenght
G1 E-1 F500  ;Retract a little
G1 X80 F4000  ;Quickly wipe away from filament line
G1 Z0.3  ;Raise and begin printing
; Filament gcode
M109 S205 ; set temperature and wait for it to be reached
G21 ; set units to millimeters
G90 ; use absolute coordinates
M82 ; use absolute distances for extrusion
G92 E0
G1 Z0.300 F7200.000
G1 E-3.00000 F2400.00000
G92 E0
G1 X96.520 Y85.858 F7200.000
G1 E3.00000 F2400.00000
G1 F1200
G1 X97.436 Y85.236 E3.07396
G1 X98.454 Y84.815 E3.14754
G1 X99.541 Y84.609 E3.22150
G1 X120.006 Y84.590 E4.58863
G1 X120.966 Y84.677 E4.65304
G1 X121.890 Y84.931 E4.71707
G1 X122.760 Y85.347 E4.78148
G1 X123.538 Y85.907 E4.84550
G1 X124.204 Y86.595 E4.90953
G1 X124.742 Y87.395 E4.97394
G1 X125.127 Y88.273 E5.03797
G1 X125.352 Y89.210 E5.10237
G1 X125.410 Y89.989 E5.15454
G1 X125.405 Y110.247 E6.50788
G1 X125.302 Y111.079 E6.56387
G1 X125.071 Y111.885 E6.61986
G1 X124.719 Y112.645 E6.67586
G1 X124.251 Y113.347 E6.73223
G1 X123.427 Y114.186 E6.81078
G1 X122.442 Y114.828 E6.88932
G1 X121.341 Y115.241 E6.96786
G1 X120.178 Y115.407 E7.04640
G1 X99.736 Y115.404 E8.41203
G1 X98.910 Y115.299 E8.46764
G1 X98.105 Y115.067 E8.52363
G1 X97.345 Y114.714 E8.57962
G1 X96.653 Y114.251 E8.63523
G1 X95.814 Y113.427 E8.71377
G1 X95.172 Y112.442 E8.79232
G1 X94.759 Y111.341 E8.87086
G1 X94.593 Y110.178 E8.94940
G1 X94.596 Y89.736 E10.31502
G1 X94.701 Y88.910 E10.37063
G1 X94.933 Y88.105 E10.42663
G1 X95.286 Y87.345 E10.48262
G1 X95.749 Y86.653 E10.53823
G1 X96.478 Y85.901 E10.60818
G1 X96.860 Y86.278 F7200.000
G1 F1200
G1 X97.726 Y85.688 E10.67815
G1 X98.645 Y85.318 E10.74436
G1 X99.625 Y85.140 E10.81093
G1 X120.005 Y85.125 E12.17244
G1 X120.873 Y85.204 E12.23067
G1 X121.714 Y85.436 E12.28889
G1 X122.499 Y85.815 E12.34712
G1 X123.208 Y86.330 E12.40571
G1 X123.811 Y86.960 E12.46393
G1 X124.294 Y87.692 E12.52252
G1 X124.636 Y88.493 E12.58075
G1 X124.830 Y89.343 E12.63897
G1 X124.870 Y110.213 E14.03317
G1 X124.775 Y110.981 E14.08486
G1 X124.562 Y111.719 E14.13619
G1 X124.235 Y112.414 E14.18751
G1 X123.800 Y113.054 E14.23920
G1 X123.057 Y113.797 E14.30940
G1 X122.168 Y114.366 E14.37995
G1 X121.182 Y114.729 E14.45014
G1 X120.135 Y114.873 E14.52070
G1 X99.776 Y114.870 E15.88077
G1 X99.014 Y114.774 E15.93210
G1 X98.276 Y114.560 E15.98342
G1 X97.581 Y114.232 E16.03475
G1 X96.946 Y113.800 E16.08608
G1 X96.203 Y113.057 E16.15627
G1 X95.634 Y112.168 E16.22682
G1 X95.271 Y111.182 E16.29702
G1 X95.127 Y110.135 E16.36757
G1 X95.130 Y89.776 E17.72765
G1 X95.226 Y89.014 E17.77897
G1 X95.440 Y88.276 E17.83030
G1 X95.768 Y87.581 E17.88163
G1 X96.200 Y86.946 E17.93295
G1 X96.818 Y86.321 E17.99168
G1 X97.196 Y86.701 F7200.000
G1 F1200
G1 X97.271 Y86.626 E17.99880
G1 X98.011 Y86.143 E18.05783
G1 X98.834 Y85.821 E18.11686
G1 X99.705 Y85.671 E18.17589
G1 X120.005 Y85.661 E19.53207
G1 X120.783 Y85.732 E19.58426
G1 X121.540 Y85.944 E19.63678
G1 X122.243 Y86.286 E19.68897
G1 X122.876 Y86.751 E19.74150
G1 X123.412 Y87.320 E19.79368
G1 X123.840 Y87.979 E19.84621
G1 X124.140 Y88.701 E19.89840
G1 X124.306 Y89.469 E19.95093
G1 X124.336 Y110.175 E21.33419
G1 X124.251 Y110.869 E21.38090
G1 X124.055 Y111.545 E21.42794
G1 X123.754 Y112.176 E21.47465
G1 X123.352 Y112.755 E21.52170
G1 X122.688 Y113.406 E21.58380
G1 X121.901 Y113.900 E21.64591
G1 X121.022 Y114.217 E21.70836
G1 X120.100 Y114.338 E21.77047
G1 X99.815 Y114.335 E23.12563
G1 X99.121 Y114.249 E23.17233
G1 X98.450 Y114.053 E23.21904
G1 X97.819 Y113.751 E23.26574
G1 X97.245 Y113.352 E23.31245
G1 X96.594 Y112.688 E23.37456
G1 X96.100 Y111.901 E23.43666
G1 X95.783 Y111.022 E23.49911
G1 X95.662 Y110.100 E23.56122
G1 X95.665 Y89.815 E24.91638
G1 X95.751 Y89.121 E24.96308
G1 X95.947 Y88.450 E25.00979
G1 X96.249 Y87.819 E25.05649
G1 X96.648 Y87.245 E25.10320
G1 X97.153 Y86.744 E25.15076
G1 X97.642 Y87.016 F7200.000
G1 F1200
G1 X98.291 Y86.602 E25.20217
G1 X99.009 Y86.328 E25.25358
G1 X99.774 Y86.203 E25.30532
G1 X120.005 Y86.197 E26.65686
G1 X120.695 Y86.261 E26.70315
G1 X121.362 Y86.449 E26.74943
G1 X121.983 Y86.755 E26.79572
G1 X122.539 Y87.168 E26.84200
G1 X123.011 Y87.676 E26.88829
G1 X123.382 Y88.260 E26.93458
G1 X123.642 Y88.903 E26.98086
G1 X123.780 Y89.582 E27.02715
G1 X123.801 Y110.145 E28.40085
G1 X123.726 Y110.766 E28.44265
G1 X123.548 Y111.371 E28.48477
G1 X123.275 Y111.934 E28.52656
G1 X122.911 Y112.448 E28.56868
G1 X122.328 Y113.008 E28.62266
G1 X121.636 Y113.434 E28.67695
G1 X120.874 Y113.702 E28.73092
G1 X120.067 Y113.803 E28.78522
G1 X99.851 Y113.800 E30.13580
G1 X99.230 Y113.725 E30.17760
G1 X98.629 Y113.548 E30.21939
G1 X98.066 Y113.275 E30.26119
G1 X97.552 Y112.911 E30.30331
G1 X96.992 Y112.328 E30.35728
G1 X96.566 Y111.636 E30.41158
G1 X96.298 Y110.874 E30.46555
G1 X96.197 Y110.067 E30.51984
G1 X96.200 Y89.851 E31.87043
G1 X96.275 Y89.230 E31.91222
G1 X96.452 Y88.629 E31.95402
G1 X96.725 Y88.066 E31.99582
G1 X97.089 Y87.552 E32.03794
G1 X97.598 Y87.058 E32.08534
G1 X96.957 Y88.809 F7200.000
G1 F1200
G1 X97.523 Y87.868 E32.15868
G1 X98.002 Y87.414 E32.20276
G1 X98.562 Y87.066 E32.24684
G1 X99.181 Y86.836 E32.29093
G1 X99.833 Y86.736 E32.33501
G1 X120.004 Y86.732 E33.68256
G1 X120.604 Y86.788 E33.72278
G1 X121.179 Y86.952 E33.76270
G1 X121.718 Y87.220 E33.80292
G1 X122.199 Y87.582 E33.84314
G1 X122.605 Y88.027 E33.88336
G1 X122.921 Y88.534 E33.92329
G1 X123.140 Y89.095 E33.96351
G1 X123.252 Y89.682 E34.00343
G1 X123.266 Y110.112 E35.36825
G1 X123.045 Y111.187 E35.44160
G1 X122.477 Y112.132 E35.51524
G1 X121.977 Y112.602 E35.56110
G1 X121.385 Y112.960 E35.60725
G1 X120.732 Y113.185 E35.65341
G1 X120.046 Y113.267 E35.69957
G1 X99.884 Y113.266 E37.04653
G1 X98.809 Y113.043 E37.11987
G1 X97.868 Y112.477 E37.19322
G1 X97.398 Y111.977 E37.23908
G1 X97.040 Y111.385 E37.28523
G1 X96.815 Y110.732 E37.33139
G1 X96.733 Y110.046 E37.37755
G1 X96.734 Y89.884 E38.72451
G1 X96.945 Y88.868 E38.79384
; PURGING FINISHED
G1 E35.79384 F2400.00000
G92 E0
G1 X106.641 Y97.962 F7200.000
G1 E3.00000 F2400.00000
G1 F1200
G1 X106.950 Y97.807 E3.02311
G1 X107.232 Y97.746 E3.04237
G1 X107.532 Y97.797 E3.06272
G1 X107.993 Y98.005 E3.09651
G1 X107.956 Y97.650 E3.12035
G1 X107.985 Y97.306 E3.14346
G1 X108.058 Y97.070 E3.15995
G1 X108.208 Y96.771 E3.18230
G1 X108.446 Y96.412 E3.21112
G1 X108.852 Y95.871 E3.25625
G1 X109.748 Y94.879 E3.34557
G1 X110.085 Y94.642 E3.37308
G1 X110.374 Y94.554 E3.39324
G1 X110.670 Y94.575 E3.41307
G1 X111.081 Y94.721 E3.44225
G1 X111.085 Y94.228 E3.47516
G1 X111.142 Y93.954 E3.49389
G1 X111.318 Y93.569 E3.52213
G1 X111.663 Y93.092 E3.56146
G1 X112.034 Y92.662 E3.59942
G1 X112.554 Y92.135 E3.64892
G1 X112.841 Y91.884 E3.67435
G1 X113.154 Y91.666 E3.69985
G1 X113.515 Y91.457 E3.72772
G1 X113.850 Y91.392 E3.75051
G1 X114.054 Y91.415 E3.76425
G1 X114.223 Y91.500 E3.77688
G1 X114.484 Y91.791 E3.80300
G1 X114.563 Y92.053 E3.82131
G1 X114.592 Y92.294 E3.83748
G1 X114.553 Y92.535 E3.85381
G1 X114.404 Y93.008 E3.88690
G1 X114.440 Y93.210 E3.90065
G1 X114.708 Y93.855 E3.94730
G1 X115.538 Y95.640 E4.07882
G1 X116.047 Y96.669 E4.15550
G1 X116.421 Y97.256 E4.20203
G1 X116.810 Y97.229 E4.22805
G1 X117.018 Y97.297 E4.24269
G1 X117.159 Y97.434 E4.25580
G1 X117.258 Y97.589 E4.26813
G1 X117.346 Y97.950 E4.29293
G1 X117.359 Y98.119 E4.30427
G1 X117.329 Y98.353 E4.31999
G1 X117.182 Y98.751 E4.34835
G1 X116.815 Y99.312 E4.39310
G1 X116.539 Y99.654 E4.42250
G1 X116.096 Y100.117 E4.46531
G1 X115.708 Y100.489 E4.50124
G1 X115.410 Y100.720 E4.52642
G1 X114.893 Y101.017 E4.56619
G1 X114.524 Y101.061 E4.59103
G1 X114.151 Y100.948 E4.61705
G1 X114.174 Y101.309 E4.64124
G1 X114.134 Y101.545 E4.65723
G1 X113.978 Y101.935 E4.68526
G1 X113.642 Y102.471 E4.72754
G1 X113.382 Y102.802 E4.75565
G1 X112.963 Y103.251 E4.79668
G1 X112.560 Y103.628 E4.83356
G1 X112.114 Y103.956 E4.87057
G1 X111.778 Y104.155 E4.89660
G1 X111.640 Y104.207 E4.90650
G1 X111.435 Y104.248 E4.92043
G1 X111.197 Y104.230 E4.93641
G1 X110.995 Y104.137 E4.95127
G1 X110.870 Y104.031 E4.96220
G1 X110.755 Y103.861 E4.97588
G1 X110.671 Y103.630 E4.99229
G1 X110.655 Y103.378 E5.00921
G1 X110.730 Y103.066 E5.03061
G1 X110.860 Y102.682 E5.05772
G1 X110.865 Y102.596 E5.06344
G1 X110.801 Y102.327 E5.08193
G1 X110.440 Y101.432 E5.14644
G1 X110.017 Y100.540 E5.21235
G1 X108.993 Y98.546 E5.36207
G1 X108.908 Y98.447 E5.37082
G1 X108.569 Y98.510 E5.39385
G1 X108.910 Y99.048 E5.43640
G1 X109.045 Y99.416 E5.46263
G1 X109.085 Y99.693 E5.48131
G1 X109.052 Y100.098 E5.50844
G1 X108.911 Y100.456 E5.53412
G1 X108.684 Y100.756 E5.55929
G1 X108.480 Y100.922 E5.57685
G1 X108.244 Y101.018 E5.59388
G1 X108.038 Y101.051 E5.60783
G1 X107.740 Y100.992 E5.62812
G1 X107.495 Y100.885 E5.64596
G1 X107.265 Y100.749 E5.66382
G1 X107.090 Y100.904 E5.67946
G1 X107.227 Y101.217 E5.70230
G1 X108.776 Y104.333 E5.93473
G1 X108.953 Y104.547 E5.95333
G1 X109.290 Y104.458 E5.97661
G1 X109.432 Y104.447 E5.98612
G1 X109.621 Y104.454 E5.99873
G1 X109.844 Y104.578 E6.01583
G1 X110.033 Y104.838 E6.03729
G1 X110.105 Y105.156 E6.05907
G1 X110.120 Y105.389 E6.07468
G1 X110.080 Y105.624 E6.09059
G1 X109.974 Y105.900 E6.11030
G1 X109.672 Y106.404 E6.14960
G1 X109.267 Y106.931 E6.19398
G1 X108.815 Y107.406 E6.23782
G1 X108.280 Y107.921 E6.28739
G1 X107.885 Y108.241 E6.32137
G1 X107.229 Y108.658 E6.37332
G1 X106.964 Y108.741 E6.39184
G1 X106.746 Y108.761 E6.40648
G1 X106.568 Y108.719 E6.41872
G1 X106.415 Y108.625 E6.43067
G1 X106.169 Y108.354 E6.45512
G1 X106.079 Y107.995 E6.47985
G1 X106.129 Y107.650 E6.50313
G1 X106.412 Y107.087 E6.54523
G1 X106.420 Y106.967 E6.55328
G1 X106.350 Y106.677 E6.57320
G1 X106.097 Y106.022 E6.62012
G1 X105.663 Y105.027 E6.69260
G1 X104.953 Y103.508 E6.80461
G1 X104.705 Y103.559 E6.82153
G1 X104.690 Y104.013 E6.85189
G1 X104.627 Y104.464 E6.88227
G1 X104.544 Y104.740 E6.90155
G1 X104.455 Y104.928 E6.91546
G1 X104.270 Y105.190 E6.93686
G1 X103.997 Y105.381 E6.95913
G1 X103.746 Y105.422 E6.97608
G1 X103.511 Y105.396 E6.99189
G1 X103.162 Y105.167 E7.01977
G1 X102.955 Y104.851 E7.04503
G1 X102.821 Y104.510 E7.06950
G1 X102.691 Y103.964 E7.10696
G1 X102.642 Y103.569 E7.13360
G1 X102.624 Y103.177 E7.15978
G1 X102.634 Y102.762 E7.18753
G1 X102.665 Y102.442 E7.20899
G1 X102.725 Y102.190 E7.22630
G1 X102.826 Y101.952 E7.24355
G1 X103.015 Y101.631 E7.26844
G1 X103.761 Y101.077 E7.33057
G1 X105.897 Y98.947 E7.53204
G1 X106.163 Y98.632 E7.55960
G1 X106.492 Y98.138 E7.59927
G1 X106.602 Y98.008 E7.61062
G1 X106.605 Y97.618 F7200.000
G1 E4.61062 F2400.00000
G92 E0
G1 X100.836 Y102.232 F7200.000
G1 E3.00000 F2400.00000
G1 F1200
G1 X100.836 Y90.836 E3.76135
G1 X113.044 Y90.836 E4.57692
G1 X113.108 Y91.074 E4.59339
G1 X112.866 Y91.213 E4.61200
G1 X112.510 Y91.461 E4.64101
G1 X112.187 Y91.745 E4.66973
G1 X111.640 Y92.298 E4.72174
G1 X111.242 Y92.760 E4.76243
G1 X110.852 Y93.298 E4.80683
G1 X110.630 Y93.786 E4.84262
G1 X110.579 Y94.032 E4.85940
G1 X110.312 Y94.013 E4.87722
G1 X109.847 Y94.154 E4.90972
G1 X109.391 Y94.476 E4.94700
G1 X108.438 Y95.530 E5.04193
G1 X108.009 Y96.103 E5.08975
G1 X107.744 Y96.502 E5.12174
G1 X107.560 Y96.869 E5.14917
G1 X107.444 Y97.239 E5.17506
G1 X107.219 Y97.200 E5.19033
G1 X106.770 Y97.298 E5.22103
G1 X106.302 Y97.533 E5.25599
G1 X106.064 Y97.816 E5.28070
G1 X105.734 Y98.310 E5.32039
G1 X105.502 Y98.585 E5.34440
G1 X103.398 Y100.682 E5.54291
G1 X102.610 Y101.262 E5.60825
G1 X102.347 Y101.711 E5.64301
G1 X102.214 Y102.022 E5.66562
G1 X102.135 Y102.354 E5.68843
G1 X102.099 Y102.730 E5.71363
G1 X102.089 Y103.183 E5.74392
G1 X102.108 Y103.614 E5.77272
G1 X102.163 Y104.059 E5.80272
G1 X102.308 Y104.671 E5.84470
G1 X102.477 Y105.098 E5.87541
G1 X102.775 Y105.553 E5.91175
G1 X103.325 Y105.915 E5.95570
G1 X103.761 Y105.962 E5.98498
G1 X104.204 Y105.890 E6.01496
G1 X104.653 Y105.575 E6.05164
G1 X105.064 Y104.994 E6.09917
G1 X105.601 Y106.225 E6.18888
G1 X105.837 Y106.837 E6.23266
G1 X105.874 Y106.990 E6.24322
G1 X105.612 Y107.480 E6.28032
G1 X105.533 Y108.023 E6.31698
G1 X105.683 Y108.614 E6.35773
G1 X106.181 Y109.164 E6.40731
G1 X100.836 Y109.164 E6.76442
G1 X100.836 Y102.292 E7.22352
G1 E4.22352 F2400.00000
G92 E0
G1 X108.841 Y101.319 F7200.000
G1 E3.00000 F2400.00000
G1 F1200
G1 X109.073 Y101.131 E3.01991
G1 X109.460 Y100.618 E3.06288
G1 X109.949 Y101.647 E3.13899
G1 X110.290 Y102.490 E3.19975
G1 X110.318 Y102.611 E3.20806
G1 X110.215 Y102.918 E3.22966
G1 X110.115 Y103.332 E3.25810
G1 X110.142 Y103.741 E3.28553
G1 X110.319 Y104.229 E3.32018
G1 X109.768 Y103.923 E3.36226
G1 X109.420 Y103.911 E3.38555
G1 X109.174 Y103.930 E3.40202
G1 X108.014 Y101.597 E3.57614
G1 X108.388 Y101.537 E3.60146
G1 X108.756 Y101.389 E3.62797
G1 X108.795 Y101.357 E3.63132
G1 E0.63132 F2400.00000
G92 E0
G1 X119.164 Y102.419 F7200.000
G1 E3.00000 F2400.00000
G1 F1200
G1 X119.164 Y109.164 E3.45063
G1 X107.862 Y109.164 E4.20566
G1 X107.795 Y108.933 E4.22177
G1 X108.198 Y108.677 E4.25367
G1 X108.635 Y108.323 E4.29124
G1 X109.195 Y107.784 E4.34315
G1 X109.674 Y107.280 E4.38963
G1 X110.116 Y106.706 E4.43796
G1 X110.458 Y106.135 E4.48248
G1 X110.599 Y105.766 E4.50881
G1 X110.659 Y105.418 E4.53246
G1 X110.636 Y105.079 E4.55514
G1 X110.505 Y104.502 E4.59467
G1 X111.061 Y104.757 E4.63548
G1 X111.468 Y104.788 E4.66276
G1 X111.789 Y104.724 E4.68462
G1 X112.012 Y104.639 E4.70059
G1 X112.409 Y104.404 E4.73141
G1 X112.903 Y104.041 E4.77236
G1 X113.342 Y103.629 E4.81256
G1 X113.790 Y103.151 E4.85633
G1 X114.081 Y102.779 E4.88787
G1 X114.458 Y102.179 E4.93524
G1 X114.652 Y101.691 E4.97030
G1 X114.671 Y101.583 E4.97766
G1 X115.065 Y101.536 E5.00421
G1 X115.708 Y101.166 E5.05375
G1 X116.058 Y100.896 E5.08327
G1 X116.475 Y100.496 E5.12187
G1 X116.941 Y100.008 E5.16695
G1 X117.249 Y99.627 E5.19965
G1 X117.663 Y98.993 E5.25025
G1 X117.852 Y98.481 E5.28669
G1 X117.897 Y98.134 E5.31010
G1 X117.877 Y97.866 E5.32806
G1 X117.757 Y97.376 E5.36178
G1 X117.577 Y97.094 E5.38414
G1 X117.303 Y96.826 E5.40970
G1 X116.876 Y96.687 E5.43969
G1 X116.702 Y96.700 E5.45138
G1 X116.515 Y96.405 E5.47467
G1 X116.021 Y95.409 E5.54899
G1 X115.198 Y93.640 E5.67932
G1 X114.946 Y93.033 E5.72323
G1 X115.075 Y92.667 E5.74911
G1 X115.132 Y92.304 E5.77367
G1 X115.089 Y91.944 E5.79789
G1 X114.963 Y91.522 E5.82729
G1 X114.346 Y90.836 E5.88896
G1 X119.164 Y90.836 E6.21086
G1 X119.164 Y102.359 E6.98068
G1 X119.700 Y102.359 F7200.000
G1 F1200
G1 X119.700 Y109.700 E7.47110
G1 X100.300 Y109.700 E8.76712
G1 X100.300 Y90.300 E10.06315
G1 X119.700 Y90.300 E11.35917
G1 X119.700 Y102.299 E12.16077
G1 X119.440 Y102.663 F7200.000
G1 E9.16077 F2400.00000
G92 E0
G1 X112.751 Y98.869 F7200.000
G1 E3.00000 F2400.00000
G1 F1200
G1 X113.027 Y98.534 E3.02906
G1 X113.490 Y98.062 E3.07321
G1 X113.663 Y98.423 E3.09999
G1 X113.880 Y98.964 E3.13893
G1 X113.967 Y99.226 E3.15733
G1 X114.021 Y99.475 E3.17439
G1 X114.011 Y99.623 E3.18431
G1 X113.890 Y100.060 E3.21457
G1 X113.913 Y100.480 E3.24271
G1 X113.685 Y100.372 E3.25957
G1 X113.460 Y100.341 E3.27477
G1 X113.296 Y100.355 E3.28575
G1 X113.133 Y100.202 E3.30069
G1 X113.033 Y100.062 E3.31223
