; generated by Slic3r Prusa Edition 1.41.1-beta+win64 on 2018-10-06 at 14:57:09

; ## Parametros optimizados por Hugo Antolini  -  2018-10-06 ##

; external perimeters extrusion width = 0.40mm
; perimeters extrusion width = 0.40mm
; infill extrusion width = 0.40mm
; solid infill extrusion width = 0.40mm
; top infill extrusion width = 0.40mm
; first layer extrusion width = 0.45mm

; M201 X9000 Y9000 Z500 E10000 ; sets maximum accelerations, mm/sec^2
; M203 X500 Y500 Z12 E120 ; sets maximum feedrates, mm/sec
; M204 P1500 R1500 T1500 ; sets acceleration (P, T) and retract acceleration (R), mm/sec^2
; M205 X10.00 Y10.00 Z0.20 E2.50 ; sets the jerk limits, mm/sec
; M205 S0 T0 ; sets the minimum extruding and travel feed rate, mm/sec
M107 ; disable fan
M190 S65 ; set bed temperature and wait for it to be reached
M104 S205 ; set temperature
G21  ;metric values
G90  ;absolute positioning
M82  ;set extruder to absolute mode
M107  ;start with the fan off

G28  ; home all axes

G1 Z15.0 F6000
G92 E0
G1 F200 E3
G92 E0

; #G0 X5 Y15 Z5 F9000  ;Move to front
; #G0 Z0.15  ;Drop to bed
; #G92 E0  ;Zero Extruder Length
; #G1 X40 E25 F500  ;Extrude 25mm of filament in 4cm line
; #G92 E0  ;Zero the extruded lenght
; #G1 E-1 F500  ;Retract a little
; #G1 X80 F4000  ;Quickly wipe away from filament line
; #G1 Z0.3  ;Raise and begin printing
; Filament gcode
M109 S205 ; set temperature and wait for it to be reached
G21 ; set units to millimeters
G90 ; use absolute coordinates
M82 ; use absolute distances for extrusion
G92 E0 ; reset extrusion distance
G1 Z0.300 F7200.000 ; move to next layer (0)
G1 E-3.00000 F2400.00000 ; retract
G92 E0 ; reset extrusion distance
G1 X47.468 Y47.691 F7200.000 ; move to first skirt point
G1 E3.00000 F2400.00000 ; unretract
G1 F1200
G1 X48.013 Y47.164 E3.03645 ; skirt
G1 X48.653 Y46.758 E3.07290 ; skirt
G1 X49.362 Y46.489 E3.10935 ; skirt
G1 X50.110 Y46.369 E3.14581 ; skirt
G1 X70.329 Y46.363 E4.11826 ; skirt
G1 X71.008 Y46.426 E4.15105 ; skirt
G1 X71.664 Y46.612 E4.18385 ; skirt
G1 X72.275 Y46.913 E4.21664 ; skirt
G1 X72.818 Y47.318 E4.24920 ; skirt
G1 X73.282 Y47.818 E4.28200 ; skirt
G1 X73.647 Y48.393 E4.31479 ; skirt
G1 X73.902 Y49.026 E4.34759 ; skirt
G1 X74.037 Y49.694 E4.38038 ; skirt
G1 X74.057 Y70.237 E5.36842 ; skirt
G1 X73.983 Y70.848 E5.39801 ; skirt
G1 X73.809 Y71.443 E5.42783 ; skirt
G1 X73.539 Y72.001 E5.45765 ; skirt
G1 X73.180 Y72.506 E5.48747 ; skirt
G1 X72.609 Y73.054 E5.52552 ; skirt
G1 X71.931 Y73.470 E5.56380 ; skirt
G1 X71.180 Y73.734 E5.60207 ; skirt
G1 X70.390 Y73.833 E5.64035 ; skirt
G1 X50.181 Y73.831 E6.61235 ; skirt
G1 X49.570 Y73.757 E6.64194 ; skirt
G1 X48.975 Y73.582 E6.67176 ; skirt
G1 X48.422 Y73.313 E6.70135 ; skirt
G1 X47.916 Y72.954 E6.73117 ; skirt
G1 X47.369 Y72.383 E6.76922 ; skirt
G1 X46.952 Y71.705 E6.80750 ; skirt
G1 X46.688 Y70.954 E6.84578 ; skirt
G1 X46.589 Y70.164 E6.88406 ; skirt
G1 X46.592 Y49.955 E7.85605 ; skirt
G1 X46.666 Y49.344 E7.88564 ; skirt
G1 X46.841 Y48.750 E7.91546 ; skirt
G1 X47.109 Y48.196 E7.94506 ; skirt
G1 X47.434 Y47.739 E7.97199 ; skirt
G1 X47.204 Y48.879 F7200.000 ; move to first skirt point
G1 F1200
G1 X47.781 Y47.918 E8.02589 ; skirt
G1 X48.271 Y47.451 E8.05845 ; skirt
G1 X48.845 Y47.093 E8.09102 ; skirt
G1 X49.480 Y46.857 E8.12358 ; skirt
G1 X50.149 Y46.753 E8.15615 ; skirt
G1 X70.329 Y46.749 E9.12670 ; skirt
G1 X70.940 Y46.806 E9.15624 ; skirt
G1 X71.531 Y46.974 E9.18577 ; skirt
G1 X72.081 Y47.246 E9.21531 ; skirt
G1 X72.575 Y47.618 E9.24506 ; skirt
G1 X72.990 Y48.071 E9.27459 ; skirt
G1 X73.316 Y48.591 E9.30413 ; skirt
G1 X73.540 Y49.163 E9.33366 ; skirt
G1 X73.657 Y49.766 E9.36320 ; skirt
G1 X73.672 Y70.216 E10.34678 ; skirt
G1 X73.444 Y71.318 E10.40089 ; skirt
G1 X72.867 Y72.278 E10.45478 ; skirt
G1 X72.352 Y72.765 E10.48886 ; skirt
G1 X71.746 Y73.131 E10.52294 ; skirt
G1 X71.076 Y73.363 E10.55702 ; skirt
G1 X70.372 Y73.448 E10.59110 ; skirt
G1 X50.202 Y73.446 E11.56123 ; skirt
G1 X49.105 Y73.218 E11.61512 ; skirt
G1 X48.144 Y72.641 E11.66902 ; skirt
G1 X47.658 Y72.126 E11.70310 ; skirt
G1 X47.291 Y71.520 E11.73718 ; skirt
G1 X47.060 Y70.850 E11.77126 ; skirt
G1 X46.975 Y70.147 E11.80533 ; skirt
G1 X46.977 Y49.976 E12.77546 ; skirt
G1 X47.192 Y48.938 E12.82647 ; skirt
G1 X47.565 Y49.015 F7200.000 ; move to first skirt point
G1 F1200
G1 X48.088 Y48.153 E12.87496 ; skirt
G1 X48.525 Y47.743 E12.90376 ; skirt
G1 X49.035 Y47.429 E12.93256 ; skirt
G1 X49.597 Y47.225 E12.96135 ; skirt
G1 X50.190 Y47.137 E12.99015 ; skirt
G1 X70.328 Y47.134 E13.95875 ; skirt
G1 X70.870 Y47.185 E13.98490 ; skirt
G1 X71.397 Y47.335 E14.01125 ; skirt
G1 X71.887 Y47.580 E14.03761 ; skirt
G1 X72.324 Y47.910 E14.06396 ; skirt
G1 X72.692 Y48.316 E14.09031 ; skirt
G1 X72.980 Y48.782 E14.11666 ; skirt
G1 X73.177 Y49.293 E14.14301 ; skirt
G1 X73.276 Y49.832 E14.16937 ; skirt
G1 X73.287 Y70.192 E15.14860 ; skirt
G1 X73.084 Y71.179 E15.19705 ; skirt
G1 X72.560 Y72.044 E15.24570 ; skirt
G1 X72.103 Y72.469 E15.27572 ; skirt
G1 X71.571 Y72.787 E15.30553 ; skirt
G1 X70.981 Y72.989 E15.33555 ; skirt
G1 X70.361 Y73.062 E15.36556 ; skirt
G1 X50.226 Y73.061 E16.33397 ; skirt
G1 X49.240 Y72.857 E16.38242 ; skirt
G1 X48.378 Y72.334 E16.43087 ; skirt
G1 X47.953 Y71.877 E16.46089 ; skirt
G1 X47.635 Y71.346 E16.49070 ; skirt
G1 X47.434 Y70.755 E16.52072 ; skirt
G1 X47.360 Y70.135 E16.55073 ; skirt
G1 X47.362 Y50.001 E17.51914 ; skirt
G1 X47.553 Y49.074 E17.56466 ; skirt
G1 X47.926 Y49.151 F7200.000 ; move to first skirt point
G1 F1200
G1 X48.394 Y48.389 E17.60762 ; skirt
G1 X48.775 Y48.037 E17.63257 ; skirt
G1 X49.219 Y47.769 E17.65753 ; skirt
G1 X49.707 Y47.595 E17.68248 ; skirt
G1 X50.221 Y47.522 E17.70743 ; skirt
G1 X70.328 Y47.520 E18.67451 ; skirt
G1 X71.266 Y47.698 E18.72041 ; skirt
G1 X72.074 Y48.205 E18.76632 ; skirt
G1 X72.645 Y48.975 E18.81242 ; skirt
G1 X72.895 Y49.896 E18.85832 ; skirt
G1 X72.901 Y70.174 E19.83359 ; skirt
G1 X72.721 Y71.047 E19.87650 ; skirt
G1 X72.255 Y71.808 E19.91940 ; skirt
G1 X71.857 Y72.171 E19.94530 ; skirt
G1 X71.393 Y72.445 E19.97120 ; skirt
G1 X70.883 Y72.616 E19.99711 ; skirt
G1 X70.348 Y72.677 E20.02301 ; skirt
G1 X50.249 Y72.676 E20.98970 ; skirt
G1 X49.375 Y72.496 E21.03260 ; skirt
G1 X48.615 Y72.029 E21.07551 ; skirt
G1 X48.251 Y71.632 E21.10141 ; skirt
G1 X47.978 Y71.168 E21.12731 ; skirt
G1 X47.807 Y70.657 E21.15321 ; skirt
G1 X47.746 Y70.122 E21.17912 ; skirt
G1 X47.747 Y50.023 E22.14581 ; skirt
G1 X47.914 Y49.209 E22.18576 ; skirt
G1 X49.397 Y48.111 F7200.000 ; move to first skirt point
G1 F1200
G1 X50.249 Y47.907 E22.22788 ; skirt
G1 X70.328 Y47.906 E23.19360 ; skirt
G1 X71.128 Y48.058 E23.23279 ; skirt
G1 X71.820 Y48.495 E23.27215 ; skirt
G1 X72.304 Y49.155 E23.31150 ; skirt
G1 X72.512 Y49.947 E23.35086 ; skirt
G1 X72.516 Y70.157 E24.32291 ; skirt
G1 X72.360 Y70.912 E24.36002 ; skirt
G1 X71.952 Y71.567 E24.39713 ; skirt
G1 X71.224 Y72.098 E24.44045 ; skirt
G1 X70.341 Y72.291 E24.48395 ; skirt
G1 X50.266 Y72.290 E25.44949 ; skirt
G1 X49.510 Y72.134 E25.48660 ; skirt
G1 X48.855 Y71.726 E25.52371 ; skirt
G1 X48.324 Y70.998 E25.56704 ; skirt
G1 X48.131 Y70.115 E25.61054 ; skirt
G1 X48.132 Y50.040 E26.57608 ; skirt
G1 X48.288 Y49.284 E26.61319 ; skirt
G1 X48.696 Y48.629 E26.65029 ; skirt
G1 X49.349 Y48.147 E26.68936 ; skirt
; PURGING FINISHED
G1 E23.68936 F2400.00000 ; retract
G92 E0 ; reset extrusion distance
G1 X56.769 Y57.812 F7200.000 ; move to first perimeter point
G1 E3.00000 F2400.00000 ; unretract
G1 F1200
G1 X57.170 Y57.610 E3.02159 ; perimeter
G1 X57.548 Y57.528 E3.04023 ; perimeter
G1 X57.980 Y57.601 E3.06131 ; perimeter
G1 X58.002 Y57.344 E3.07371 ; perimeter
G1 X58.093 Y57.052 E3.08846 ; perimeter
G1 X58.263 Y56.713 E3.10667 ; perimeter
G1 X58.517 Y56.331 E3.12874 ; perimeter
G1 X58.936 Y55.772 E3.16236 ; perimeter
G1 X59.865 Y54.744 E3.22901 ; perimeter
G1 X60.271 Y54.457 E3.25289 ; perimeter
G1 X60.662 Y54.339 E3.27256 ; perimeter
G1 X61.083 Y54.368 E3.29284 ; perimeter
G1 X61.169 Y53.955 E3.31314 ; perimeter
G1 X61.372 Y53.510 E3.33662 ; perimeter
G1 X61.743 Y52.998 E3.36705 ; perimeter
G1 X62.129 Y52.549 E3.39552 ; perimeter
G1 X62.665 Y52.007 E3.43220 ; perimeter
G1 X62.973 Y51.737 E3.45189 ; perimeter
G1 X63.311 Y51.501 E3.47171 ; perimeter
G1 X63.729 Y51.260 E3.49490 ; perimeter
G1 X64.161 Y51.176 E3.51610 ; perimeter
G1 X64.469 Y51.211 E3.53098 ; perimeter
G1 X64.739 Y51.347 E3.54555 ; perimeter
G1 X65.086 Y51.734 E3.57052 ; perimeter
G1 X65.192 Y52.088 E3.58833 ; perimeter
G1 X65.229 Y52.398 E3.60333 ; perimeter
G1 X65.180 Y52.710 E3.61852 ; perimeter
G1 X65.044 Y53.110 E3.63881 ; perimeter
G1 X65.064 Y53.221 E3.64426 ; perimeter
G1 X65.316 Y53.829 E3.67589 ; perimeter
G1 X66.142 Y55.604 E3.77008 ; perimeter
G1 X66.642 Y56.614 E3.82430 ; perimeter
G1 X66.908 Y57.032 E3.84810 ; perimeter
G1 X67.173 Y57.013 E3.86085 ; perimeter
G1 X67.508 Y57.122 E3.87780 ; perimeter
G1 X67.725 Y57.335 E3.89243 ; perimeter
G1 X67.872 Y57.564 E3.90550 ; perimeter
G1 X67.978 Y57.999 E3.92708 ; perimeter
G1 X67.995 Y58.226 E3.93801 ; perimeter
G1 X67.956 Y58.526 E3.95253 ; perimeter
G1 X67.785 Y58.990 E3.97633 ; perimeter
G1 X67.391 Y59.593 E4.01099 ; perimeter
G1 X67.096 Y59.957 E4.03353 ; perimeter
G1 X66.640 Y60.435 E4.06530 ; perimeter
G1 X66.235 Y60.823 E4.09228 ; perimeter
G1 X65.907 Y61.077 E4.11222 ; perimeter
G1 X65.317 Y61.416 E4.14493 ; perimeter
G1 X64.801 Y61.478 E4.16993 ; perimeter
G1 X64.759 Y61.728 E4.18216 ; perimeter
G1 X64.580 Y62.174 E4.20527 ; perimeter
G1 X64.220 Y62.748 E4.23784 ; perimeter
G1 X63.943 Y63.103 E4.25951 ; perimeter
G1 X63.507 Y63.569 E4.29019 ; perimeter
G1 X63.083 Y63.966 E4.31813 ; perimeter
G1 X62.609 Y64.314 E4.34642 ; perimeter
G1 X62.238 Y64.534 E4.36716 ; perimeter
G1 X62.050 Y64.605 E4.37682 ; perimeter
G1 X61.778 Y64.659 E4.39016 ; perimeter
G1 X61.442 Y64.634 E4.40638 ; perimeter
G1 X61.150 Y64.500 E4.42185 ; perimeter
G1 X60.961 Y64.338 E4.43380 ; perimeter
G1 X60.800 Y64.102 E4.44752 ; perimeter
G1 X60.688 Y63.793 E4.46334 ; perimeter
G1 X60.666 Y63.449 E4.47990 ; perimeter
G1 X60.755 Y63.078 E4.49825 ; perimeter
G1 X60.876 Y62.720 E4.51642 ; perimeter
G1 X60.829 Y62.520 E4.52633 ; perimeter
G1 X60.479 Y61.655 E4.57121 ; perimeter
G1 X59.735 Y60.130 E4.65282 ; perimeter
G1 X59.509 Y60.707 E4.68263 ; perimeter
G1 X59.234 Y61.072 E4.70462 ; perimeter
G1 X58.964 Y61.291 E4.72131 ; perimeter
G1 X58.652 Y61.418 E4.73753 ; perimeter
G1 X58.356 Y61.464 E4.75193 ; perimeter
G1 X57.930 Y61.381 E4.77280 ; perimeter
G1 X59.380 Y64.297 E4.92947 ; perimeter
G1 X59.561 Y64.249 E4.93848 ; perimeter
G1 X59.749 Y64.234 E4.94752 ; perimeter
G1 X60.030 Y64.244 E4.96106 ; perimeter
G1 X60.379 Y64.438 E4.98028 ; perimeter
G1 X60.645 Y64.806 E5.00210 ; perimeter
G1 X60.737 Y65.210 E5.02201 ; perimeter
G1 X60.757 Y65.504 E5.03621 ; perimeter
G1 X60.705 Y65.805 E5.05089 ; perimeter
G1 X60.579 Y66.134 E5.06784 ; perimeter
G1 X60.253 Y66.678 E5.09832 ; perimeter
G1 X59.827 Y67.231 E5.13192 ; perimeter
G1 X59.359 Y67.724 E5.16459 ; perimeter
G1 X58.810 Y68.252 E5.20125 ; perimeter
G1 X58.390 Y68.592 E5.22721 ; perimeter
G1 X57.685 Y69.041 E5.26745 ; perimeter
G1 X57.349 Y69.145 E5.28433 ; perimeter
G1 X57.048 Y69.174 E5.29891 ; perimeter
G1 X56.771 Y69.108 E5.31258 ; perimeter
G1 X56.539 Y68.965 E5.32570 ; perimeter
G1 X56.211 Y68.603 E5.34916 ; perimeter
G1 X56.086 Y68.110 E5.37365 ; perimeter
G1 X56.153 Y67.650 E5.39600 ; perimeter
G1 X56.434 Y67.105 E5.42547 ; perimeter
G1 X56.377 Y66.868 E5.43719 ; perimeter
G1 X56.133 Y66.238 E5.46966 ; perimeter
G1 X55.704 Y65.253 E5.52133 ; perimeter
G1 X55.317 Y64.425 E5.56532 ; perimeter
G1 X55.159 Y64.950 E5.59169 ; perimeter
G1 X55.048 Y65.184 E5.60413 ; perimeter
G1 X54.816 Y65.511 E5.62344 ; perimeter
G1 X54.441 Y65.775 E5.64549 ; perimeter
G1 X54.079 Y65.833 E5.66313 ; perimeter
G1 X53.727 Y65.795 E5.68014 ; perimeter
G1 X53.262 Y65.489 E5.70692 ; perimeter
G1 X53.002 Y65.093 E5.72973 ; perimeter
G1 X52.848 Y64.701 E5.74996 ; perimeter
G1 X52.709 Y64.118 E5.77881 ; perimeter
G1 X52.656 Y63.693 E5.79939 ; perimeter
G1 X52.638 Y63.279 E5.81933 ; perimeter
G1 X52.648 Y62.842 E5.84037 ; perimeter
G1 X52.682 Y62.490 E5.85738 ; perimeter
G1 X52.752 Y62.191 E5.87214 ; perimeter
G1 X52.872 Y61.911 E5.88680 ; perimeter
G1 X53.104 Y61.515 E5.90884 ; perimeter
G1 X53.875 Y60.946 E5.95491 ; perimeter
G1 X55.992 Y58.835 E6.09873 ; perimeter
G1 X56.238 Y58.543 E6.11708 ; perimeter
G1 X56.568 Y58.049 E6.14565 ; perimeter
G1 X56.730 Y57.857 E6.15773 ; perimeter
G1 X57.012 Y58.121 F7200.000 ; move to first perimeter point
G1 F1200
G1 X57.299 Y57.977 E6.17318 ; perimeter
G1 X57.557 Y57.921 E6.18589 ; perimeter
G1 X57.834 Y57.968 E6.19938 ; perimeter
G1 X58.166 Y58.118 E6.21693 ; perimeter
G1 X58.412 Y58.295 E6.23149 ; perimeter
G1 X58.355 Y57.748 E6.25793 ; perimeter
G1 X58.383 Y57.419 E6.27383 ; perimeter
G1 X58.452 Y57.197 E6.28501 ; perimeter
G1 X58.597 Y56.907 E6.30059 ; perimeter
G1 X58.832 Y56.553 E6.32101 ; perimeter
G1 X59.234 Y56.017 E6.35323 ; perimeter
G1 X60.122 Y55.034 E6.41698 ; perimeter
G1 X60.442 Y54.808 E6.43580 ; perimeter
G1 X60.706 Y54.729 E6.44907 ; perimeter
G1 X60.978 Y54.747 E6.46219 ; perimeter
G1 X61.229 Y54.836 E6.47497 ; perimeter
G1 X61.589 Y55.013 E6.49427 ; perimeter
G1 X61.482 Y54.644 E6.51276 ; perimeter
G1 X61.484 Y54.335 E6.52763 ; perimeter
G1 X61.538 Y54.076 E6.54035 ; perimeter
G1 X61.707 Y53.706 E6.55991 ; perimeter
G1 X62.046 Y53.237 E6.58772 ; perimeter
G1 X62.413 Y52.811 E6.61477 ; perimeter
G1 X62.930 Y52.288 E6.65015 ; perimeter
G1 X63.211 Y52.041 E6.66814 ; perimeter
G1 X63.518 Y51.827 E6.68614 ; perimeter
G1 X63.866 Y51.627 E6.70545 ; perimeter
G1 X64.177 Y51.566 E6.72070 ; perimeter
G1 X64.356 Y51.586 E6.72939 ; perimeter
G1 X64.501 Y51.659 E6.73715 ; perimeter
G1 X64.741 Y51.927 E6.75448 ; perimeter
G1 X64.813 Y52.167 E6.76654 ; perimeter
G1 X64.840 Y52.391 E6.77737 ; perimeter
G1 X64.804 Y52.615 E6.78830 ; perimeter
G1 X64.678 Y52.973 E6.80655 ; perimeter
G1 X64.652 Y53.105 E6.81302 ; perimeter
G1 X64.692 Y53.330 E6.82400 ; perimeter
G1 X64.963 Y53.984 E6.85806 ; perimeter
G1 X65.794 Y55.771 E6.95286 ; perimeter
G1 X66.306 Y56.804 E7.00830 ; perimeter
G1 X66.706 Y57.433 E7.04415 ; perimeter
G1 X67.125 Y57.403 E7.06433 ; perimeter
G1 X67.302 Y57.461 E7.07332 ; perimeter
G1 X67.424 Y57.580 E7.08150 ; perimeter
G1 X67.512 Y57.718 E7.08936 ; perimeter
G1 X67.596 Y58.060 E7.10632 ; perimeter
G1 X67.608 Y58.216 E7.11382 ; perimeter
G1 X67.580 Y58.433 E7.12436 ; perimeter
G1 X67.438 Y58.815 E7.14397 ; perimeter
G1 X67.079 Y59.366 E7.17559 ; perimeter
G1 X66.806 Y59.703 E7.19643 ; perimeter
G1 X66.367 Y60.163 E7.22702 ; perimeter
G1 X65.983 Y60.531 E7.25262 ; perimeter
G1 X65.692 Y60.756 E7.27031 ; perimeter
G1 X65.193 Y61.042 E7.29796 ; perimeter
G1 X64.855 Y61.083 E7.31435 ; perimeter
G1 X64.661 Y61.024 E7.32410 ; perimeter
G1 X64.505 Y60.892 E7.33391 ; perimeter
G1 X64.363 Y60.978 E7.34189 ; perimeter
G1 X64.409 Y61.187 E7.35215 ; perimeter
G1 X64.423 Y61.404 E7.36261 ; perimeter
G1 X64.385 Y61.623 E7.37332 ; perimeter
G1 X64.235 Y61.999 E7.39279 ; perimeter
G1 X63.904 Y62.526 E7.42272 ; perimeter
G1 X63.649 Y62.852 E7.44261 ; perimeter
G1 X63.234 Y63.296 E7.47187 ; perimeter
G1 X62.836 Y63.669 E7.49809 ; perimeter
G1 X62.396 Y63.992 E7.52434 ; perimeter
G1 X62.070 Y64.185 E7.54259 ; perimeter
G1 X61.943 Y64.234 E7.54911 ; perimeter
G1 X61.755 Y64.271 E7.55834 ; perimeter
G1 X61.540 Y64.255 E7.56870 ; perimeter
G1 X61.359 Y64.172 E7.57825 ; perimeter
G1 X61.251 Y64.079 E7.58513 ; perimeter
G1 X61.147 Y63.925 E7.59405 ; perimeter
G1 X61.070 Y63.713 E7.60490 ; perimeter
G1 X61.055 Y63.483 E7.61602 ; perimeter
G1 X61.126 Y63.185 E7.63072 ; perimeter
G1 X61.258 Y62.795 E7.65055 ; perimeter
G1 X61.265 Y62.688 E7.65569 ; perimeter
G1 X61.197 Y62.403 E7.66981 ; perimeter
G1 X60.833 Y61.500 E7.71663 ; perimeter
G1 X60.408 Y60.606 E7.76424 ; perimeter
G1 X59.484 Y58.779 E7.86270 ; perimeter
G1 X59.379 Y58.601 E7.87265 ; perimeter
G1 X59.291 Y58.499 E7.87913 ; perimeter
G1 X59.180 Y58.479 E7.88453 ; perimeter
