; generated by Slic3r 1.3.1-dev (Build d17659b67c65bb5003ec92bf0d56ed7f8810e970) on 2018-09-30 at 22:26:18

; Print Config Notes: 
; ## Parametros optimizados por Hugo Antolini  -  2018-09-30
; 
; Printer Config Notes: 
; # Parametros optimizados por Hugo A. Antolini - Tronxy T819 - 2018-09-30
; 
; external perimeters extrusion width = 0.44mm (1.99mm^3/s)
; perimeters extrusion width = 0.56mm (5.17mm^3/s)
; infill extrusion width = 0.50mm (5.48mm^3/s)
; solid infill extrusion width = 0.56mm (3.10mm^3/s)
; top infill extrusion width = 0.56mm (2.07mm^3/s)

M107
M190 S65 ; set bed temperature and wait for it to be reached
M104 S205 ; set temperature
;Sliced at: {day}  {date}  {time}
G21          ;metric values
G90          ;absolute positioning
M82         ;set extruder to absolute mode
M107       ;start with the fan off

G28 ; home all axes

G0 X5 Y15 Z5 F9000   ;Move to front
G0 Z0.15                      ;Drop to bed
G92 E0                         ;Zero Extruder Length
G1 X40 E25 F500         ;Extrude 25mm of filament in 4cm line
G92 E0                         ;Zero the extruded lenght
G1 E-1 F500                ;Retract a little
G1 X80 F4000             ;Quickly wipe away from filament line
G1 Z0.3                       ;Raise and begin printing

; Filament gcode

M109 S205 ; set temperature and wait for it to be reached
G21 ; set units to millimeters
G90 ; use absolute coordinates
M82 ; use absolute distances for extrusion
G92 E0
G92 E0
G1 Z0.300 F7200.000
G1 E-3.00000 F2400.00000
G92 E0
G1 X95.852 Y96.122 F7200.000
G1 E3.00000 F2400.00000
G1 F1200
G1 X97.566 Y94.870 E3.14175
G1 X100.000 Y94.322 E3.30845
G1 X120.000 Y94.322 E4.64456
G1 X122.085 Y94.718 E4.78631
G1 X123.878 Y95.852 E4.92807
G1 X125.130 Y97.566 E5.06982
G1 X125.678 Y100.000 E5.23652
G1 X125.678 Y120.000 E6.57263
G1 X125.282 Y122.085 E6.71438
G1 X124.148 Y123.878 E6.85614
G1 X122.434 Y125.130 E6.99789
G1 X120.000 Y125.678 E7.16459
G1 X100.000 Y125.678 E8.50070
G1 X97.915 Y125.282 E8.64245
G1 X96.122 Y124.148 E8.78421
G1 X94.870 Y122.434 E8.92596
G1 X94.322 Y120.000 E9.09266
G1 X94.322 Y100.000 E10.42877
G1 X94.718 Y97.915 E10.57052
G1 X95.820 Y96.173 E10.70827
G1 X96.381 Y96.347 F7200.000
G1 F1200
G1 X98.066 Y95.235 E10.84311
G1 X100.000 Y94.858 E10.97476
G1 X120.000 Y94.858 E12.31087
G1 X121.979 Y95.254 E12.44571
G1 X123.653 Y96.381 E12.58055
G1 X124.765 Y98.066 E12.71539
G1 X125.142 Y100.000 E12.84705
G1 X125.142 Y120.000 E14.18316
G1 X124.746 Y121.979 E14.31800
G1 X123.619 Y123.653 E14.45284
G1 X121.934 Y124.765 E14.58768
G1 X120.000 Y125.142 E14.71934
G1 X100.000 Y125.142 E16.05544
G1 X98.021 Y124.746 E16.19029
G1 X96.347 Y123.619 E16.32513
G1 X95.235 Y121.934 E16.45997
G1 X94.858 Y120.000 E16.59162
G1 X94.858 Y100.000 E17.92773
G1 X95.254 Y98.021 E18.06257
G1 X96.347 Y96.396 E18.19340
G1 X96.908 Y96.585 F7200.000
G1 F1200
G1 X98.558 Y95.625 E18.32096
G1 X100.000 Y95.393 E18.41853
G1 X120.000 Y95.393 E19.75463
G1 X121.868 Y95.789 E19.88219
G1 X123.415 Y96.908 E20.00974
G1 X124.375 Y98.558 E20.13729
G1 X124.607 Y100.000 E20.23486
G1 X124.607 Y120.000 E21.57097
G1 X124.211 Y121.868 E21.69852
G1 X123.092 Y123.415 E21.82607
G1 X121.442 Y124.375 E21.95363
G1 X120.000 Y124.607 E22.05120
G1 X100.000 Y124.607 E23.38730
G1 X98.132 Y124.211 E23.51486
G1 X96.585 Y123.092 E23.64241
G1 X95.625 Y121.442 E23.76996
G1 X95.393 Y120.000 E23.86753
G1 X95.393 Y100.000 E25.20364
G1 X95.789 Y98.132 E25.33119
G1 X96.873 Y96.634 E25.45474
G1 X97.432 Y96.840 F7200.000
G1 F1200
G1 X99.039 Y96.044 E25.57456
G1 X100.000 Y95.929 E25.63919
G1 X120.000 Y95.929 E26.97530
G1 X121.750 Y96.324 E27.09512
G1 X123.160 Y97.432 E27.21494
G1 X123.956 Y99.039 E27.33477
G1 X124.071 Y100.000 E27.39940
G1 X124.071 Y120.000 E28.73551
G1 X123.676 Y121.750 E28.85533
G1 X122.568 Y123.160 E28.97515
G1 X120.961 Y123.956 E29.09498
G1 X120.000 Y124.071 E29.15961
G1 X100.000 Y124.071 E30.49572
G1 X98.250 Y123.676 E30.61554
G1 X96.840 Y122.568 E30.73536
G1 X96.044 Y120.961 E30.85519
G1 X95.929 Y120.000 E30.91982
G1 X95.929 Y100.000 E32.25593
G1 X96.324 Y98.250 E32.37575
G1 X97.395 Y96.888 E32.49156
G1 X97.954 Y97.117 F7200.000
G1 F1200
G1 X100.000 Y96.464 E32.63504
G1 X120.000 Y96.464 E33.97115
G1 X121.623 Y96.859 E34.08270
G1 X122.883 Y97.954 E34.19426
G1 X123.536 Y100.000 E34.33774
G1 X123.536 Y120.000 E35.67385
G1 X123.141 Y121.623 E35.78540
G1 X122.046 Y122.883 E35.89696
G1 X120.000 Y123.536 E36.04043
G1 X100.000 Y123.536 E37.37654
G1 X98.377 Y123.141 E37.48810
G1 X97.117 Y122.046 E37.59966
G1 X96.464 Y120.000 E37.74313
G1 X96.464 Y100.000 E39.07924
G1 X96.859 Y98.377 E39.19080
G1 X97.914 Y97.162 E39.29835
; printing object box.v2.stl id:0 copy 0
G1 E36.29835 F2400.00000
G92 E0
G1 X106.641 Y107.962 F7200.000
G1 E3.00000 F2400.00000
G1 F1200
G1 X106.950 Y107.807 E3.02311
G1 X107.232 Y107.746 E3.04237
G1 X107.532 Y107.797 E3.06272
G1 X107.993 Y108.005 E3.09651
G1 X107.956 Y107.650 E3.12035
G1 X107.985 Y107.306 E3.14346
G1 X108.058 Y107.070 E3.15995
G1 X108.208 Y106.771 E3.18230
G1 X108.446 Y106.412 E3.21112
G1 X108.852 Y105.871 E3.25625
G1 X109.743 Y104.885 E3.34509
G1 X109.970 Y104.708 E3.36427
G1 X110.272 Y104.571 E3.38642
G1 X110.482 Y104.553 E3.40051
G1 X110.678 Y104.578 E3.41373
G1 X111.081 Y104.721 E3.44232
G1 X111.085 Y104.228 E3.47523
G1 X111.142 Y103.954 E3.49396
G1 X111.318 Y103.569 E3.52220
G1 X111.663 Y103.092 E3.56153
G1 X112.034 Y102.662 E3.59949
G1 X112.554 Y102.135 E3.64899
G1 X112.841 Y101.884 E3.67442
G1 X113.154 Y101.666 E3.69992
G1 X113.515 Y101.457 E3.72779
G1 X113.850 Y101.392 E3.75058
G1 X114.054 Y101.415 E3.76432
G1 X114.222 Y101.500 E3.77691
G1 X114.483 Y101.788 E3.80290
G1 X114.563 Y102.053 E3.82139
G1 X114.592 Y102.294 E3.83756
G1 X114.553 Y102.535 E3.85389
G1 X114.404 Y103.008 E3.88698
G1 X114.440 Y103.210 E3.90073
G1 X114.708 Y103.855 E3.94739
G1 X115.538 Y105.640 E4.07890
G1 X116.047 Y106.669 E4.15558
G1 X116.421 Y107.256 E4.20211
G1 X116.810 Y107.229 E4.22814
G1 X117.018 Y107.297 E4.24277
G1 X117.159 Y107.434 E4.25588
G1 X117.258 Y107.589 E4.26821
G1 X117.346 Y107.950 E4.29301
G1 X117.359 Y108.119 E4.30436
G1 X117.329 Y108.353 E4.32008
G1 X117.182 Y108.751 E4.34843
G1 X116.815 Y109.312 E4.39318
G1 X116.539 Y109.654 E4.42258
G1 X116.096 Y110.117 E4.46540
G1 X115.708 Y110.489 E4.50132
G1 X115.410 Y110.720 E4.52650
G1 X114.893 Y111.017 E4.56628
G1 X114.524 Y111.061 E4.59111
G1 X114.160 Y110.951 E4.61651
G1 X114.173 Y111.313 E4.64075
G1 X114.134 Y111.545 E4.65648
G1 X113.978 Y111.935 E4.68450
G1 X113.642 Y112.471 E4.72679
G1 X113.382 Y112.802 E4.75490
G1 X112.963 Y113.251 E4.79592
G1 X112.560 Y113.628 E4.83280
G1 X112.114 Y113.956 E4.86981
G1 X111.778 Y114.155 E4.89584
G1 X111.640 Y114.207 E4.90574
G1 X111.435 Y114.248 E4.91967
G1 X111.197 Y114.230 E4.93565
G1 X110.995 Y114.137 E4.95052
G1 X110.870 Y114.031 E4.96144
G1 X110.755 Y113.861 E4.97512
G1 X110.671 Y113.630 E4.99154
G1 X110.655 Y113.378 E5.00845
G1 X110.730 Y113.066 E5.02985
G1 X110.860 Y112.682 E5.05697
G1 X110.865 Y112.596 E5.06269
G1 X110.801 Y112.327 E5.08118
G1 X110.440 Y111.432 E5.14568
G1 X110.017 Y110.540 E5.21159
G1 X108.993 Y108.546 E5.36132
G1 X108.908 Y108.447 E5.37006
G1 X108.569 Y108.510 E5.39309
G1 X108.910 Y109.048 E5.43565
G1 X109.045 Y109.416 E5.46187
G1 X109.085 Y109.693 E5.48055
G1 X109.052 Y110.098 E5.50768
G1 X108.911 Y110.456 E5.53336
G1 X108.684 Y110.756 E5.55853
G1 X108.480 Y110.922 E5.57609
G1 X108.244 Y111.018 E5.59313
G1 X108.038 Y111.051 E5.60708
G1 X107.740 Y110.992 E5.62737
G1 X107.495 Y110.885 E5.64520
G1 X107.265 Y110.749 E5.66306
G1 X107.090 Y110.904 E5.67870
G1 X107.227 Y111.217 E5.70154
G1 X108.776 Y114.333 E5.93398
G1 X108.953 Y114.547 E5.95257
G1 X109.290 Y114.458 E5.97585
G1 X109.432 Y114.447 E5.98536
G1 X109.621 Y114.454 E5.99797
G1 X109.844 Y114.578 E6.01507
G1 X110.033 Y114.838 E6.03653
G1 X110.105 Y115.156 E6.05831
G1 X110.120 Y115.389 E6.07393
G1 X110.080 Y115.624 E6.08983
G1 X109.974 Y115.900 E6.10954
G1 X109.672 Y116.404 E6.14884
G1 X109.267 Y116.931 E6.19322
G1 X108.815 Y117.406 E6.23706
G1 X108.280 Y117.921 E6.28663
G1 X107.885 Y118.241 E6.32062
G1 X107.229 Y118.658 E6.37256
G1 X106.964 Y118.741 E6.39109
G1 X106.746 Y118.761 E6.40573
G1 X106.568 Y118.719 E6.41796
G1 X106.415 Y118.625 E6.42991
G1 X106.169 Y118.354 E6.45437
G1 X106.079 Y117.995 E6.47909
G1 X106.129 Y117.650 E6.50237
G1 X106.412 Y117.087 E6.54448
G1 X106.420 Y116.967 E6.55252
G1 X106.350 Y116.677 E6.57245
G1 X106.097 Y116.022 E6.61936
G1 X105.663 Y115.027 E6.69184
G1 X104.953 Y113.508 E6.80385
G1 X104.705 Y113.559 E6.82078
G1 X104.690 Y114.013 E6.85113
G1 X104.627 Y114.464 E6.88152
G1 X104.544 Y114.740 E6.90079
G1 X104.455 Y114.928 E6.91470
G1 X104.270 Y115.190 E6.93610
G1 X103.997 Y115.381 E6.95838
G1 X103.746 Y115.422 E6.97532
G1 X103.511 Y115.396 E6.99113
G1 X103.162 Y115.167 E7.01901
G1 X102.955 Y114.851 E7.04427
G1 X102.821 Y114.510 E7.06875
G1 X102.691 Y113.964 E7.10620
G1 X102.642 Y113.569 E7.13284
G1 X102.624 Y113.177 E7.15902
G1 X102.634 Y112.762 E7.18677
G1 X102.665 Y112.442 E7.20823
G1 X102.725 Y112.190 E7.22554
G1 X102.826 Y111.952 E7.24279
G1 X103.015 Y111.631 E7.26769
G1 X103.761 Y111.077 E7.32981
G1 X105.897 Y108.947 E7.53129
G1 X106.163 Y108.632 E7.55884
G1 X106.492 Y108.138 E7.59852
G1 X106.602 Y108.008 E7.60986
G1 X106.641 Y107.962 F7200.000
G1 E4.60986 F2400.00000
G92 E0
G1 X100.836 Y102.474 F7200.000
G1 E3.00000 F2400.00000
G1 F1200
G1 X100.836 Y100.836 E3.10942
G1 X113.044 Y100.836 E3.92499
G1 X113.108 Y101.074 E3.94146
G1 X112.866 Y101.213 E3.96007
G1 X112.510 Y101.461 E3.98908
G1 X112.187 Y101.745 E4.01780
G1 X111.640 Y102.298 E4.06981
G1 X111.242 Y102.760 E4.11050
G1 X110.852 Y103.298 E4.15490
G1 X110.630 Y103.786 E4.19069
G1 X110.584 Y104.007 E4.20576
G1 X110.134 Y104.045 E4.23591
G1 X109.690 Y104.246 E4.26848
G1 X109.377 Y104.491 E4.29502
G1 X108.438 Y105.530 E4.38859
G1 X108.009 Y106.103 E4.43641
G1 X107.744 Y106.502 E4.46840
G1 X107.560 Y106.869 E4.49583
G1 X107.444 Y107.239 E4.52172
G1 X107.219 Y107.200 E4.53699
G1 X106.770 Y107.298 E4.56769
G1 X106.302 Y107.533 E4.60265
G1 X106.064 Y107.816 E4.62737
G1 X105.734 Y108.310 E4.66706
G1 X105.502 Y108.585 E4.69106
G1 X103.398 Y110.682 E4.88957
G1 X102.610 Y111.262 E4.95491
G1 X102.347 Y111.711 E4.98967
G1 X102.214 Y112.022 E5.01228
G1 X102.135 Y112.354 E5.03510
G1 X102.099 Y112.730 E5.06029
G1 X102.089 Y113.183 E5.09058
G1 X102.108 Y113.614 E5.11938
G1 X102.163 Y114.059 E5.14939
G1 X102.308 Y114.671 E5.19136
G1 X102.477 Y115.098 E5.22207
G1 X102.775 Y115.553 E5.25841
G1 X103.325 Y115.915 E5.30236
G1 X103.761 Y115.962 E5.33164
G1 X104.204 Y115.890 E5.36162
G1 X104.653 Y115.575 E5.39830
G1 X105.064 Y114.994 E5.44583
G1 X105.601 Y116.225 E5.53554
G1 X105.837 Y116.837 E5.57932
G1 X105.874 Y116.990 E5.58988
G1 X105.612 Y117.480 E5.62698
G1 X105.533 Y118.023 E5.66364
G1 X105.683 Y118.614 E5.70439
G1 X106.181 Y119.164 E5.75397
G1 X100.836 Y119.164 E6.11108
G1 X100.836 Y102.534 E7.22211
G1 E4.22211 F2400.00000
G92 E0
G1 X108.764 Y111.382 F7200.000
G1 E3.00000 F2400.00000
G1 F1200
G1 X109.073 Y111.131 E3.02662
G1 X109.460 Y110.618 E3.06959
G1 X109.949 Y111.647 E3.14570
G1 X110.290 Y112.490 E3.20646
G1 X110.318 Y112.611 E3.21477
G1 X110.215 Y112.918 E3.23637
G1 X110.115 Y113.332 E3.26481
G1 X110.142 Y113.741 E3.29224
G1 X110.319 Y114.229 E3.32689
G1 X109.768 Y113.923 E3.36897
G1 X109.420 Y113.911 E3.39226
G1 X109.174 Y113.930 E3.40873
G1 X108.014 Y111.597 E3.58285
G1 X108.388 Y111.537 E3.60817
G1 X108.709 Y111.407 E3.63132
G1 E0.63132 F2400.00000
G92 E0
G1 X112.933 Y114.013 F7200.000
G1 E3.00000 F2400.00000
G1 F1200
G1 X113.342 Y113.629 E3.03750
G1 X113.790 Y113.151 E3.08127
G1 X114.081 Y112.779 E3.11281
G1 X114.458 Y112.179 E3.16018
G1 X114.652 Y111.691 E3.19524
G1 X114.671 Y111.583 E3.20260
G1 X115.065 Y111.536 E3.22915
G1 X115.708 Y111.166 E3.27869
G1 X116.058 Y110.895 E3.30821
G1 X116.475 Y110.496 E3.34682
G1 X116.941 Y110.008 E3.39190
G1 X117.249 Y109.627 E3.42459
G1 X117.663 Y108.993 E3.47519
G1 X117.852 Y108.481 E3.51164
G1 X117.897 Y108.134 E3.53505
G1 X117.877 Y107.866 E3.55300
G1 X117.757 Y107.376 E3.58672
G1 X117.577 Y107.094 E3.60909
G1 X117.303 Y106.826 E3.63464
G1 X116.876 Y106.687 E3.66463
G1 X116.702 Y106.700 E3.67632
G1 X116.515 Y106.405 E3.69961
G1 X116.021 Y105.409 E3.77393
G1 X115.198 Y103.640 E3.90426
G1 X114.946 Y103.033 E3.94817
G1 X115.075 Y102.667 E3.97406
G1 X115.132 Y102.304 E3.99862
G1 X115.089 Y101.944 E4.02284
G1 X114.962 Y101.519 E4.05249
G1 X114.344 Y100.836 E4.11403
G1 X119.164 Y100.836 E4.43606
G1 X119.164 Y119.164 E5.66052
G1 X107.862 Y119.164 E6.41556
G1 X107.795 Y118.933 E6.43167
G1 X108.198 Y118.677 E6.46357
G1 X108.635 Y118.323 E6.50113
G1 X109.195 Y117.784 E6.55304
G1 X109.674 Y117.280 E6.59953
G1 X110.116 Y116.706 E6.64785
G1 X110.458 Y116.135 E6.69238
G1 X110.599 Y115.766 E6.71871
G1 X110.659 Y115.418 E6.74236
G1 X110.636 Y115.079 E6.76504
G1 X110.505 Y114.502 E6.80457
G1 X111.061 Y114.757 E6.84538
G1 X111.468 Y114.788 E6.87266
G1 X111.789 Y114.724 E6.89451
G1 X112.012 Y114.639 E6.91048
G1 X112.409 Y114.404 E6.94131
G1 X112.887 Y114.053 E6.98095
G1 E3.98095 F2400.00000
G92 E0
G1 X112.887 Y119.700 F7200.000
G1 E3.00000 F2400.00000
G1 F1200
G1 X100.300 Y119.700 E3.84090
G1 X100.300 Y100.300 E5.13693
G1 X119.700 Y100.300 E6.43295
G1 X119.700 Y119.700 E7.72898
G1 X112.947 Y119.700 E8.18009
G1 X112.566 Y119.462 F7200.000
G1 E5.18009 F2400.00000
G92 E0
G1 X113.913 Y109.977 F7200.000
G1 E3.00000 F2400.00000
G1 F1200
G1 X113.890 Y110.060 E3.00576
G1 X113.913 Y110.481 E3.03391
G1 X113.685 Y110.372 E3.05077
G1 X113.460 Y110.341 E3.06597
G1 X113.296 Y110.355 E3.07695
G1 X113.133 Y110.202 E3.09189
G1 X113.033 Y110.062 E3.10343
G1 X112.687 Y109.342 E3.15678
G1 X112.598 Y109.091 E3.17458
G1 X112.743 Y108.880 E3.19164
G1 X113.027 Y108.534 E3.22158
G1 X113.490 Y108.062 E3.26574
G1 X113.663 Y108.423 E3.29252
G1 X113.967 Y109.226 E3.34983
G1 X114.025 Y109.519 E3.36983
G1 X113.929 Y109.919 E3.39729
G1 X113.830 Y109.999 F7200.000
G1 E0.39729 F2400.00000
G92 E0
G1 X112.574 Y106.265 F7200.000
G1 E3.00000 F2400.00000
G1 F1200
G1 X112.308 Y106.594 E3.02826
G1 X111.660 Y107.232 E3.08901
G1 X111.369 Y106.603 E3.13533
G1 X111.269 Y106.323 E3.15523
G1 X111.258 Y106.120 E3.16879
G1 X111.369 Y105.707 E3.19732
G1 X111.416 Y105.409 E3.21753
G1 X111.396 Y105.218 E3.23031
G1 X111.790 Y105.259 E3.25681
G1 X112.021 Y105.230 E3.27236
G1 X112.256 Y105.592 E3.30121
G1 X112.573 Y106.214 E3.34783
G1 X112.397 Y106.316 F7200.000
G1 E0.34783 F2400.00000
G92 E0
G1 X107.187 Y110.359 F7200.000
G1 E3.00000 F2400.00000
G1 F1200
G1 X106.959 Y110.480 E3.00353
G1 X106.762 Y110.740 E3.00799
G1 X107.520 Y111.206 F7200.000
G1 F1200
G1 X107.649 Y111.315 E3.00881
G1 X107.862 Y111.319 E3.00983
G1 X109.258 Y110.389 F7200.000
G1 F1200
G1 X109.316 Y110.286 E3.01035
G1 F1200
G1 X109.444 Y110.003 E3.01437
G1 X108.760 Y111.716 F7200.000
G1 F1200
G1 X109.123 Y111.921 E3.04221
G1 X109.810 Y112.104 E3.08975
G1 X110.048 Y112.638 F7200.000
G1 F1200
G1 X109.311 Y112.542 E3.13945
G1 X108.756 Y112.349 E3.17869
G1 X109.062 Y113.039 F7200.000
G1 F1200
G1 X109.904 Y113.177 E3.23570
G1 E0.23570 F2400.00000
G92 E0
G1 X110.893 Y114.974 F7200.000
G1 E3.00000 F2400.00000
G1 F1200
G1 X110.948 Y115.050 E3.00030
G1 X110.942 Y115.163 E3.00067
G1 E0.00067 F2400.00000
G92 E0
G1 X113.464 Y110.072 F7200.000
G1 E3.00000 F2400.00000
G1 F1200
G1 X113.422 Y109.521 E3.04073
G1 X113.377 Y109.386 E3.05115
G1 F1200
G1 X113.298 Y109.183 E3.06864
G1 X113.419 Y108.535 E3.12161
G1 E0.12161 F2400.00000
G92 E0
G1 X110.523 Y103.390 F7200.000
G1 E3.00000 F2400.00000
G1 F1200
G1 X110.169 Y103.372 E3.02368
G1 X109.633 Y103.387 E3.05948
G1 X109.101 Y103.445 E3.09527
G1 X108.574 Y103.546 E3.13106
G1 X108.058 Y103.689 E3.16686
G1 X107.555 Y103.874 E3.20265
G1 X107.069 Y104.099 E3.23845
G1 X106.603 Y104.363 E3.27424
G1 X106.159 Y104.663 E3.31003
G1 X105.742 Y104.999 E3.34583
G1 X105.353 Y105.368 E3.38162
G1 X104.996 Y105.767 E3.41742
G1 X104.672 Y106.194 E3.45321
G1 X104.385 Y106.647 E3.48901
G1 X104.135 Y107.121 E3.52480
G1 X103.926 Y107.614 E3.56060
