;FLAVOR:Marlin
;TIME:1249
;Filament used: 1.32048m
;Layer height: 0.2
;Generated with Cura_SteamEngine 3.5.0
M140 S60
M105
M190 S60
M104 S200
M105
M109 S200
M82 ;absolute extrusion mode
G28 ;Home
G1 Z15.0 F6000
G92 E0
G1 F200 E3
G92 E0
G92 E0
G1 F2400 E-3
;LAYER_COUNT:100
;LAYER:0
M107
G0 F3600 X37.639 Y37.666 Z0.3
;TYPE:SKIRT
G1 F2400 E0
G1 F1800 X38.034 Y37.282 E0.02748
G1 X38.48 Y36.958 E0.05499
G1 X38.968 Y36.703 E0.08246
G1 X39.488 Y36.52 E0.10996
G1 X40.029 Y36.415 E0.13745
G1 X40.482 Y36.388 E0.16009
G1 X60.464 Y36.389 E1.157
G1 X61.014 Y36.429 E1.18451
G1 X61.552 Y36.548 E1.212
G1 X62.067 Y36.744 E1.23949
G1 X62.548 Y37.012 E1.26696
G1 X62.986 Y37.346 E1.29444
G1 X63.37 Y37.741 E1.32193
G1 X63.694 Y38.187 E1.34943
G1 X63.949 Y38.675 E1.3769
G1 X64.132 Y39.195 E1.4044
G1 X64.237 Y39.736 E1.4319
G1 X64.264 Y40.189 E1.45454
G1 X64.264 Y60.17 E2.45139
G1 X64.224 Y60.72 E2.47891
G1 X64.105 Y61.258 E2.5064
G1 X63.909 Y61.773 E2.53389
G1 X63.641 Y62.254 E2.56136
G1 X63.307 Y62.692 E2.58884
G1 X62.912 Y63.076 E2.61632
G1 X62.466 Y63.4 E2.64382
G1 X61.978 Y63.655 E2.67129
G1 X61.458 Y63.838 E2.6988
G1 X60.917 Y63.943 E2.72629
G1 X60.464 Y63.97 E2.74893
G1 X40.482 Y63.97 E3.74584
G1 X39.932 Y63.93 E3.77335
G1 X39.394 Y63.811 E3.80084
G1 X38.879 Y63.615 E3.82833
G1 X38.398 Y63.347 E3.8558
G1 X37.96 Y63.013 E3.88328
G1 X37.576 Y62.618 E3.91077
G1 X37.252 Y62.172 E3.93827
G1 X36.997 Y61.684 E3.96574
G1 X36.814 Y61.164 E3.99324
G1 X36.709 Y60.623 E4.02074
G1 X36.682 Y60.17 E4.04338
G1 X36.682 Y40.188 E5.04028
G1 X36.722 Y39.638 E5.06779
G1 X36.841 Y39.1 E5.09528
G1 X37.037 Y38.585 E5.12278
G1 X37.305 Y38.104 E5.15025
G1 X37.639 Y37.666 E5.17773
G0 F3600 X38.034 Y37.828
G1 F1800 X38.424 Y37.482 E5.20374
G1 X38.862 Y37.199 E5.22975
G1 X39.337 Y36.986 E5.25572
G1 X39.84 Y36.849 E5.28173
G1 X40.482 Y36.788 E5.31391
G1 X60.464 Y36.789 E6.31081
G1 X60.984 Y36.829 E6.33683
G1 X61.491 Y36.948 E6.36281
G1 X61.974 Y37.143 E6.3888
G1 X62.422 Y37.41 E6.41482
G1 X62.824 Y37.741 E6.4408
G1 X63.17 Y38.131 E6.46681
G1 X63.453 Y38.569 E6.49283
G1 X63.666 Y39.045 E6.51884
G1 X63.803 Y39.547 E6.5448
G1 X63.864 Y40.189 E6.57698
G1 X63.864 Y60.17 E7.57383
G1 X63.824 Y60.69 E7.59985
G1 X63.705 Y61.197 E7.62584
G1 X63.51 Y61.68 E7.65182
G1 X63.244 Y62.128 E7.67782
G1 X62.912 Y62.53 E7.70383
G1 X62.522 Y62.876 E7.72984
G1 X62.084 Y63.159 E7.75585
G1 X61.609 Y63.372 E7.78183
G1 X61.106 Y63.509 E7.80784
G1 X60.464 Y63.57 E7.84001
G1 X40.482 Y63.57 E8.83692
G1 X39.962 Y63.53 E8.86293
G1 X39.455 Y63.411 E8.88892
G1 X38.972 Y63.216 E8.9149
G1 X38.524 Y62.95 E8.9409
G1 X38.122 Y62.618 E8.96691
G1 X37.776 Y62.228 E8.99292
G1 X37.493 Y61.79 E9.01894
G1 X37.28 Y61.315 E9.04491
G1 X37.143 Y60.812 E9.07092
G1 X37.082 Y60.17 E9.10309
G1 X37.082 Y40.188 E10.1
G1 X37.122 Y39.668 E10.12601
G1 X37.241 Y39.161 E10.152
G1 X37.436 Y38.678 E10.17798
G1 X37.702 Y38.23 E10.20398
G1 X38.034 Y37.828 E10.22999
G0 F3600 X38.1 Y38.364
G1 F1800 X38.428 Y38.001 E10.2544
G1 X38.811 Y37.696 E10.27882
G1 X39.239 Y37.458 E10.30326
G1 X39.699 Y37.292 E10.32765
G1 X40.18 Y37.203 E10.35206
G1 X40.482 Y37.188 E10.36714
G1 X60.464 Y37.189 E11.36405
G1 X60.952 Y37.229 E11.38848
G1 X61.427 Y37.348 E11.41291
G1 X61.876 Y37.542 E11.43731
G1 X62.288 Y37.807 E11.46175
G1 X62.651 Y38.135 E11.48616
G1 X62.956 Y38.518 E11.51058
G1 X63.194 Y38.946 E11.53502
G1 X63.36 Y39.406 E11.55941
G1 X63.449 Y39.888 E11.58387
G1 X63.464 Y40.189 E11.5989
G1 X63.464 Y60.17 E12.59576
G1 X63.424 Y60.658 E12.62019
G1 X63.305 Y61.133 E12.64462
G1 X63.111 Y61.582 E12.66902
G1 X62.846 Y61.994 E12.69346
G1 X62.518 Y62.357 E12.71787
G1 X62.135 Y62.662 E12.74229
G1 X61.707 Y62.9 E12.76673
G1 X61.247 Y63.066 E12.79112
G1 X60.766 Y63.155 E12.81553
G1 X60.464 Y63.17 E12.83061
G1 X40.482 Y63.17 E13.82752
G1 X39.994 Y63.13 E13.85195
G1 X39.519 Y63.011 E13.87638
G1 X39.07 Y62.817 E13.90078
G1 X38.658 Y62.552 E13.92522
G1 X38.295 Y62.224 E13.94963
G1 X37.99 Y61.841 E13.97406
G1 X37.752 Y61.413 E13.99849
G1 X37.586 Y60.953 E14.02289
G1 X37.497 Y60.472 E14.04729
G1 X37.482 Y60.17 E14.06238
G1 X37.482 Y40.188 E15.05928
G1 X37.522 Y39.7 E15.08371
G1 X37.641 Y39.225 E15.10814
G1 X37.835 Y38.776 E15.13254
G1 X38.1 Y38.364 E15.15698
G0 F3600 X38.497 Y38.509
G1 F1800 X38.82 Y38.188 E15.1797
G1 X39.195 Y37.929 E15.20244
G1 X39.609 Y37.739 E15.22516
G1 X40.05 Y37.624 E15.2479
G1 X40.482 Y37.588 E15.26953
G1 X60.464 Y37.589 E16.26643
G1 X60.918 Y37.629 E16.28917
G1 X61.358 Y37.748 E16.31191
G1 X61.77 Y37.941 E16.33461
G1 X62.143 Y38.204 E16.35738
G1 X62.464 Y38.527 E16.3801
G1 X62.723 Y38.902 E16.40284
G1 X62.913 Y39.316 E16.42556
G1 X63.028 Y39.757 E16.4483
G1 X63.064 Y40.189 E16.46993
G1 X63.064 Y60.17 E17.46678
G1 X63.024 Y60.624 E17.48952
G1 X62.906 Y61.064 E17.51225
G1 X62.712 Y61.476 E17.53497
G1 X62.449 Y61.849 E17.55774
G1 X62.126 Y62.17 E17.58046
G1 X61.751 Y62.429 E17.60319
G1 X61.337 Y62.619 E17.62592
G1 X60.896 Y62.734 E17.64866
G1 X60.464 Y62.77 E17.67029
G1 X40.482 Y62.77 E18.66719
G1 X40.028 Y62.73 E18.68993
G1 X39.588 Y62.612 E18.71266
G1 X39.176 Y62.418 E18.73538
G1 X38.803 Y62.155 E18.75815
G1 X38.482 Y61.832 E18.78086
G1 X38.223 Y61.457 E18.8036
G1 X38.033 Y61.043 E18.82633
G1 X37.918 Y60.602 E18.84907
G1 X37.882 Y60.17 E18.87069
G1 X37.882 Y40.188 E19.8676
G1 X37.922 Y39.734 E19.89034
G1 X38.04 Y39.294 E19.91306
G1 X38.234 Y38.882 E19.93578
G1 X38.497 Y38.509 E19.95855
G0 F3600 X38.892 Y38.668
G1 F1800 X39.209 Y38.394 E19.97946
G1 X39.572 Y38.185 E20.00035
G1 X39.969 Y38.049 E20.02129
G1 X40.482 Y37.988 E20.04707
G1 X60.464 Y37.989 E21.04397
G1 X60.881 Y38.029 E21.06487
G1 X61.283 Y38.147 E21.08577
G1 X61.656 Y38.34 E21.10673
G1 X61.985 Y38.599 E21.12762
G1 X62.258 Y38.916 E21.14849
G1 X62.467 Y39.28 E21.16943
G1 X62.603 Y39.676 E21.19032
G1 X62.664 Y40.189 E21.21609
G1 X62.664 Y60.17 E22.21295
G1 X62.624 Y60.587 E22.23385
G1 X62.506 Y60.989 E22.25475
G1 X62.313 Y61.361 E22.27566
G1 X62.054 Y61.69 E22.29655
G1 X61.737 Y61.964 E22.31745
G1 X61.374 Y62.173 E22.33835
G1 X60.977 Y62.309 E22.35928
G1 X60.464 Y62.37 E22.38506
G1 X40.482 Y62.37 E23.38196
G1 X40.065 Y62.33 E23.40286
G1 X39.663 Y62.212 E23.42377
G1 X39.291 Y62.019 E23.44467
G1 X38.962 Y61.76 E23.46556
G1 X38.688 Y61.443 E23.48647
G1 X38.479 Y61.08 E23.50737
G1 X38.343 Y60.683 E23.5283
G1 X38.282 Y60.17 E23.55408
G1 X38.282 Y40.188 E24.55098
G1 X38.322 Y39.771 E24.57188
G1 X38.44 Y39.369 E24.59278
G1 X38.633 Y38.997 E24.61369
G1 X38.892 Y38.668 E24.63458
G1 F2400 E21.63458
G0 F3600 X41.087 Y40.793
G0 X54.64 Y41.195
G0 X54.636 Y41.294
;TYPE:WALL-INNER
G1 F2400 E24.63458
G1 F1800 X54.22 Y41.276 E24.65536
G1 X53.873 Y41.357 E24.67313
G1 X53.466 Y41.591 E24.69656
G1 X53.129 Y41.826 E24.71705
G1 X52.822 Y42.094 E24.73738
G1 X52.289 Y42.634 E24.77524
G1 X52.02 Y42.936 E24.79541
G1 X51.541 Y43.579 E24.83542
G1 X51.399 Y43.851 E24.85072
G1 X51.323 Y44.063 E24.86196
G1 X51.259 Y44.365 E24.87736
G1 X51.257 Y44.437 E24.88096
G1 X51.255 Y44.475 E24.88285
G1 X51.231 Y44.466
G1 X50.991 Y44.428 E24.89101
G1 X50.637 Y44.47 E24.9088
G1 X50.418 Y44.557 E24.92056
G1 X50.144 Y44.73 E24.93672
G1 X49.909 Y44.945 E24.95261
G1 X49.317 Y45.604 E24.99681
G1 X48.879 Y46.134 E25.03111
G1 X48.548 Y46.601 E25.05967
G1 X48.363 Y46.902 E25.0773
G1 X48.249 Y47.145 E25.09069
G1 X48.166 Y47.415 E25.10478
G1 X48.133 Y47.681 E25.11815
G1 X48.129 Y47.711 E25.11966
G1 X48.054 Y47.679
G1 X48.028 Y47.668 E25.12018
G1 X47.776 Y47.628 E25.13027
G1 X47.526 Y47.644 E25.14277
G1 X47.301 Y47.713 E25.15451
G1 X46.908 Y47.908 E25.1764
G1 X46.63 Y48.28 E25.19956
G1 X46.455 Y48.549 E25.21557
G1 X46.15 Y48.922 E25.23961
G1 X43.963 Y51.092 E25.39332
G1 X43.261 Y51.606 E25.43673
G1 X43.025 Y52.004 E25.45981
G1 X42.882 Y52.372 E25.47951
G1 X42.82 Y52.748 E25.49852
G1 X42.8 Y53.095 E25.51586
G1 X42.815 Y53.767 E25.5494
G1 X42.867 Y54.187 E25.57051
G1 X42.939 Y54.542 E25.58858
G1 X43.012 Y54.793 E25.60162
G1 X43.156 Y55.157 E25.62115
G1 X43.328 Y55.445 E25.63789
G1 X43.53 Y55.651 E25.65228
G1 X43.905 Y55.874 E25.67405
G1 X44.341 Y55.903 E25.69585
G1 X44.655 Y55.806 E25.71224
G1 X44.963 Y55.578 E25.73136
G1 X45.188 Y55.259 E25.75084
G1 X45.296 Y55.029 E25.76352
G1 X45.297 Y55.027 E25.76363
G1 X45.356 Y54.832 E25.77379
G1 X45.394 Y54.708 E25.78026
G1 X45.435 Y54.412 E25.79517
G1 X45.541 Y54.636 E25.7971
G1 X45.648 Y54.86 E25.80569
G1 X45.682 Y54.931 E25.80863
G1 X45.683 Y54.933 E25.80874
G1 X46.29 Y56.311 E25.88386
G1 X46.49 Y56.808 E25.91059
G1 X46.557 Y57.013 E25.92135
G1 X46.592 Y57.191 E25.9304
G1 X46.318 Y57.729 E25.96052
G1 X46.255 Y58.059 E25.97728
G1 X46.269 Y58.319 E25.99027
G1 X46.377 Y58.681 E26.00912
G1 X46.629 Y58.974 E26.0284
G1 X46.806 Y59.116 E26.03972
G1 X46.958 Y59.182 E26.04799
G1 X47.05 Y59.222 E26.05299
G1 X47.336 Y59.244 E26.0673
G1 X47.579 Y59.181 E26.07983
G1 X47.811 Y59.121 E26.09178
G1 X48.314 Y58.813 E26.12121
G1 X48.643 Y58.582 E26.14126
G1 X48.955 Y58.322 E26.16153
G1 X49.501 Y57.797 E26.19931
G1 X49.963 Y57.311 E26.23277
G1 X50.261 Y56.941 E26.25647
G1 X50.652 Y56.349 E26.29187
G1 X50.787 Y56.048 E26.30832
G1 X50.864 Y55.796 E26.32147
G1 X50.896 Y55.557 E26.3335
G1 X50.847 Y55.151 E26.3539
G1 X50.787 Y54.913 E26.36615
G1 X50.646 Y54.676 E26.37991
G1 X50.483 Y54.507 E26.39162
G1 X50.17 Y54.33 E26.40956
G1 X49.792 Y54.329 E26.42842
G1 X49.533 Y54.392 E26.44172
G1 X49.359 Y54.085 E26.45932
G1 X48.194 Y51.716 E26.59103
G1 X48.185 Y51.698 E26.59203
G1 X48.082 Y51.488 E26.6037
G1 X48.053 Y51.43 E26.60694
G1 X48.135 Y51.462
G1 X48.514 Y51.537 E26.61969
G1 X48.534 Y51.533 E26.62067
G1 X48.885 Y51.465 E26.63851
G1 X49.122 Y51.35 E26.65165
G1 X49.368 Y51.152 E26.66741
G1 X49.581 Y50.886 E26.68441
G1 X49.694 Y50.684 E26.69596
G1 X49.702 Y50.67 E26.69676
G1 X49.817 Y50.346 E26.71391
G1 X49.844 Y50.109 E26.72581
G1 X49.933 Y50.286 E26.72697
G1 X50.041 Y50.498 E26.73399
G1 X50.048 Y50.513 E26.7348
G1 X50.165 Y50.742 E26.74763
G1 X50.637 Y51.728 E26.80217
G1 X50.992 Y52.606 E26.84941
G1 X51.028 Y52.74 E26.85634
G1 X51.034 Y52.809 E26.85979
G1 X51.026 Y52.853 E26.86202
G1 X50.877 Y53.297 E26.88539
G1 X50.826 Y53.54 E26.89778
G1 X50.847 Y53.872 E26.91437
G1 X50.959 Y54.179 E26.93068
G1 X51.119 Y54.412 E26.94478
G1 X51.304 Y54.571 E26.95695
G1 X51.593 Y54.705 E26.97284
G1 X51.912 Y54.728 E26.9888
G1 X52.127 Y54.696 E26.99964
G1 X52.378 Y54.609 E27.0129
G1 X52.909 Y54.285 E27.04393
G1 X53.231 Y54.033 E27.06433
G1 X53.648 Y53.642 E27.09285
G1 X54.083 Y53.177 E27.12462
G1 X54.361 Y52.823 E27.14707
G1 X54.714 Y52.258 E27.18031
G1 X54.843 Y51.962 E27.19642
G1 X54.918 Y51.712 E27.20944
G1 X54.944 Y51.521 E27.21906
G1 X55.124 Y51.539 E27.22808
G1 X55.471 Y51.479 E27.24565
G1 X55.883 Y51.253 E27.26909
G1 X56.219 Y51.027 E27.2893
G1 X56.521 Y50.764 E27.30928
G1 X57.084 Y50.198 E27.3491
G1 X57.388 Y49.854 E27.37201
G1 X57.659 Y49.482 E27.39497
G1 X57.921 Y49.07 E27.41933
G1 X58.045 Y48.763 E27.43585
G1 X58.12 Y48.485 E27.45021
G1 X58.122 Y48.106 E27.46912
G1 X58.002 Y47.616 E27.49429
G1 X57.712 Y47.254 E27.51743
G1 X57.45 Y47.133 E27.53183
G1 X57.126 Y47.102 E27.54807
G1 X57.036 Y47.117 E27.55262
G1 X56.874 Y46.863 E27.56765
G1 X56.469 Y46.077 E27.61176
G1 X55.716 Y44.48 E27.69985
G1 X55.215 Y43.352 E27.76143
G1 X55.186 Y43.256 E27.76643
G1 X55.18 Y43.206 E27.76894
G1 X55.19 Y43.157 E27.77144
G1 X55.318 Y42.788 E27.79092
G1 X55.368 Y42.478 E27.80659
G1 X55.33 Y42.17 E27.82207
G1 X55.23 Y41.837 E27.83942
G1 X54.985 Y41.532 E27.85894
G1 X54.636 Y41.294 E27.88001
G0 F3600 X54.505 Y41.689
;TYPE:WALL-OUTER
G1 F1800 X54.257 Y41.678 E27.8924
G1 X54.021 Y41.733 E27.90449
G1 X53.681 Y41.929 E27.92406
G1 X53.376 Y42.142 E27.94262
G1 X53.096 Y42.386 E27.96115
G1 X52.581 Y42.908 E27.99774
G1 X52.33 Y43.189 E28.01653
G1 X51.881 Y43.793 E28.05408
G1 X51.766 Y44.012 E28.06642
G1 X51.709 Y44.172 E28.0749
G1 X51.658 Y44.414 E28.08724
G1 X51.65 Y44.637 E28.09837
G1 X51.65 Y44.641 E28.09857
G1 X51.671 Y44.8 E28.10657
G1 X51.683 Y44.837 E28.10851
G1 X51.745 Y45.026 E28.11843
G1 X51.874 Y45.211 E28.12969
G1 X51.99 Y45.29 E28.13669
G1 X52.025 Y45.314 E28.1388
G1 X52.261 Y45.338 E28.15064
G1 X52.42 Y45.318 E28.15863
G1 X52.512 Y45.329 E28.16326
G1 X52.575 Y45.37 E28.16701
G1 X52.617 Y45.418 E28.17019
G1 X52.813 Y45.717 E28.18803
G1 X52.992 Y46.045 E28.20667
G1 X53.137 Y46.351 E28.22356
G1 X53.147 Y46.388 E28.22547
G1 X53.135 Y46.492 E28.2307
G1 X53.023 Y46.651 E28.2404
G1 X52.597 Y47.097 E28.27117
G1 X52.293 Y47.386 E28.2921
G1 X52.149 Y47.523 E28.30201
G1 X52.132 Y47.533 E28.303
G1 X52.088 Y47.51 E28.30547
G1 X52.053 Y47.469 E28.30816
G1 X51.968 Y47.29 E28.31514
G1 X51.792 Y46.924 E28.33541
G1 X51.644 Y46.526 E28.35659
G1 X51.626 Y46.373 E28.36428
G1 X51.632 Y46.28 E28.36893
G1 X51.744 Y45.866 E28.39032
G1 X51.788 Y45.585 E28.40451
G1 X51.763 Y45.354 E28.41332
G1 X51.73 Y45.265 E28.41425
G1 X51.664 Y45.086 E28.41672
G1 X51.557 Y45.034 E28.41833
G1 X51.477 Y44.995 E28.41982
G1 X51.474 Y44.994 E28.41998
G1 X51.368 Y44.941 E28.42538
G1 X51.131 Y44.855 E28.43796
G1 X50.983 Y44.832 E28.44543
G1 X50.736 Y44.861 E28.45784
G1 X50.6 Y44.915 E28.46514
G1 X50.388 Y45.049 E28.47765
G1 X50.193 Y45.227 E28.49082
G1 X49.62 Y45.865 E28.53361
G1 X49.197 Y46.377 E28.56674
G1 X48.882 Y46.822 E28.59394
G1 X48.716 Y47.092 E28.60975
G1 X48.623 Y47.29 E28.62067
G1 X48.558 Y47.5 E28.63163
G1 X48.53 Y47.72 E28.6427
G1 X48.535 Y47.913 E28.65233
G1 X48.535 Y47.939 E28.65363
G1 X48.565 Y48.186 E28.66604
G1 X48.58 Y48.305 E28.67203
G1 X48.649 Y48.386 E28.67733
G1 X48.763 Y48.52 E28.68611
G1 X48.833 Y48.547 E28.68985
G1 X48.906 Y48.577 E28.69379
G1 X48.946 Y48.577 E28.69579
G1 X49.059 Y48.58 E28.70143
G1 X49.071 Y48.578 E28.70203
G1 X49.327 Y48.534 E28.71499
G1 X49.452 Y48.557 E28.72133
G1 X49.552 Y48.671 E28.7289
G1 X49.62 Y48.781 E28.73535
G1 X50.526 Y50.569 E28.83535
G1 X51.003 Y51.565 E28.89045
G1 X51.371 Y52.477 E28.93951
G1 X51.424 Y52.672 E28.94959
G1 X51.437 Y52.825 E28.95726
G1 X51.415 Y52.95 E28.96359
G1 X51.264 Y53.402 E28.98736
G1 X51.229 Y53.569 E28.99588
G1 X51.243 Y53.789 E29.00687
G1 X51.318 Y53.995 E29.01781
G1 X51.419 Y54.143 E29.02675
G1 X51.522 Y54.231 E29.03351
G1 X51.695 Y54.311 E29.04302
G1 X51.897 Y54.326 E29.05312
G1 X52.031 Y54.306 E29.05988
G1 X52.206 Y54.245 E29.06913
G1 X52.681 Y53.955 E29.09689
G1 X52.971 Y53.729 E29.11524
G1 X53.365 Y53.359 E29.1422
G1 X53.779 Y52.916 E29.17245
G1 X54.033 Y52.593 E29.19295
G1 X54.359 Y52.071 E29.22366
G1 X54.467 Y51.824 E29.23711
G1 X54.526 Y51.628 E29.24732
G1 X54.545 Y51.483 E29.25461
G1 X54.541 Y51.334 E29.26205
G1 X54.53 Y51.275 E29.26504
G1 X54.515 Y51.2 E29.26886
G1 X54.513 Y51.189 E29.26942
G1 X54.493 Y51.092 E29.27436
G1 X54.471 Y50.988 E29.27966
G1 X54.405 Y50.885 E29.28577
G1 X54.329 Y50.768 E29.29273
G1 X54.144 Y50.652 E29.30362
G1 X54.111 Y50.647 E29.30529
G1 X54.002 Y50.627 E29.31081
G1 X53.72 Y50.628 E29.32488
G1 X53.597 Y50.518 E29.33312
G1 X53.474 Y50.375 E29.34253
G1 X53.37 Y50.205 E29.35247
G1 X53.067 Y49.558 E29.38811
G1 X52.979 Y49.289 E29.40223
G1 X52.988 Y49.217 E29.40585
G1 X53.23 Y48.872 E29.42688
G1 X53.419 Y48.653 E29.44131
G1 X53.758 Y48.31 E29.46537
G1 X53.88 Y48.186 E29.47405
G1 X53.946 Y48.136 E29.47818
G1 X53.994 Y48.114 E29.48081
G1 X54.037 Y48.164 E29.4841
G1 X54.11 Y48.323 E29.49065
G1 X54.346 Y48.837 E29.51887
G1 X54.56 Y49.465 E29.55197
G1 X54.59 Y49.629 E29.56029
G1 X54.592 Y49.758 E29.56673
G1 X54.485 Y50.147 E29.58685
G1 X54.456 Y50.355 E29.59733
G1 X54.479 Y50.533 E29.60629
G1 X54.483 Y50.566 E29.60794
G1 X54.525 Y50.71 E29.61245
G1 X54.549 Y50.791 E29.61372
G1 X54.613 Y50.866 E29.61559
G1 X54.72 Y50.992 E29.62383
G1 X54.759 Y51.037 E29.62681
G1 X54.888 Y51.114 E29.63325
G1 X54.899 Y51.115 E29.6338
G1 X55.109 Y51.136 E29.64433
G1 X55.337 Y51.096 E29.65588
G1 X55.675 Y50.911 E29.6751
G1 X55.975 Y50.709 E29.69315
G1 X56.248 Y50.472 E29.71118
G1 X56.792 Y49.924 E29.74971
G1 X57.076 Y49.603 E29.77109
G1 X57.328 Y49.257 E29.79244
G1 X57.564 Y48.886 E29.81438
G1 X57.665 Y48.636 E29.82783
G1 X57.72 Y48.431 E29.83842
G1 X57.722 Y48.153 E29.85229
G1 X57.635 Y47.797 E29.87057
G1 X57.459 Y47.578 E29.88459
G1 X57.344 Y47.525 E29.89091
