; G-Code generated by Simplify3D(R) Version 4.0.1
; Oct 8, 2018 at 1:03:26 AM
; Settings Summary
;   processName,Process1
;   applyToModels,Cytosine_base_orange
;   profileName,HDefault (modified)
;   profileVersion,2017-03-01 08:00:00
;   baseProfile,Default (modified)
;   printMaterial,R3D PLA
;   printQuality,Medium
;   printExtruders,
;   extruderName,Primary Extruder
;   extruderToolheadNumber,0
;   extruderDiameter,0.4
;   extruderAutoWidth,0
;   extruderWidth,0.4
;   extrusionMultiplier,1
;   extruderUseRetract,1
;   extruderRetractionDistance,3
;   extruderExtraRestartDistance,0
;   extruderRetractionZLift,0
;   extruderRetractionSpeed,1800
;   extruderUseCoasting,0
;   extruderCoastingDistance,0.2
;   extruderUseWipe,0
;   extruderWipeDistance,5
;   primaryExtruder,0
;   layerHeight,0.2
;   topSolidLayers,3
;   bottomSolidLayers,3
;   perimeterOutlines,2
;   printPerimetersInsideOut,1
;   startPointOption,2
;   startPointOriginX,0
;   startPointOriginY,0
;   sequentialIslands,0
;   spiralVaseMode,0
;   firstLayerHeightPercentage,150
;   firstLayerWidthPercentage,100
;   firstLayerUnderspeed,0.3
;   useRaft,1
;   raftExtruder,0
;   raftTopLayers,1
;   raftBaseLayers,1
;   raftOffset,1
;   raftSeparationDistance,0.15
;   raftTopInfill,70
;   aboveRaftSpeedMultiplier,0.3
;   useSkirt,1
;   skirtExtruder,0
;   skirtLayers,1
;   skirtOutlines,5
;   skirtOffset,2
;   usePrimePillar,0
;   primePillarExtruder,999
;   primePillarWidth,12
;   primePillarLocation,7
;   primePillarSpeedMultiplier,1
;   useOozeShield,0
;   oozeShieldExtruder,999
;   oozeShieldOffset,2
;   oozeShieldOutlines,1
;   oozeShieldSidewallShape,1
;   oozeShieldSidewallAngle,30
;   oozeShieldSpeedMultiplier,1
;   infillExtruder,0
;   internalInfillPattern,Rectilinear
;   externalInfillPattern,Rectilinear
;   infillPercentage,20
;   outlineOverlapPercentage,20
;   infillExtrusionWidthPercentage,100
;   minInfillLength,5
;   infillLayerInterval,1
;   internalInfillAngles,45,-45
;   overlapInternalInfillAngles,0
;   externalInfillAngles,45,-45
;   generateSupport,1
;   supportExtruder,0
;   supportInfillPercentage,30
;   supportExtraInflation,0
;   supportBaseLayers,1
;   denseSupportExtruder,0
;   denseSupportLayers,1
;   denseSupportInfillPercentage,70
;   supportLayerInterval,1
;   supportHorizontalPartOffset,0.3
;   supportUpperSeparationLayers,1
;   supportLowerSeparationLayers,1
;   supportType,0
;   supportGridSpacing,4
;   maxOverhangAngle,80
;   supportAngles,0
;   temperatureName,Primary Extruder,Primary Bed
;   temperatureNumber,0,1
;   temperatureSetpointCount,2,1
;   temperatureSetpointLayers,1,2,1
;   temperatureSetpointTemperatures,200,195,55
;   temperatureStabilizeAtStartup,1,1
;   temperatureHeatedBed,0,1
;   temperatureRelayBetweenLayers,1,1
;   temperatureRelayBetweenLoops,0,0
;   fanLayers,1,2
;   fanSpeeds,0,100
;   blipFanToFullPower,0
;   adjustSpeedForCooling,1
;   minSpeedLayerTime,15
;   minCoolingSpeedSlowdown,30
;   increaseFanForCooling,0
;   minFanLayerTime,45
;   maxCoolingFanSpeed,100
;   increaseFanForBridging,0
;   bridgingFanSpeed,100
;   use5D,1
;   relativeEdistances,0
;   allowEaxisZeroing,1
;   independentExtruderAxes,0
;   includeM10123,0
;   stickySupport,0
;   applyToolheadOffsets,0
;   gcodeXoffset,0
;   gcodeYoffset,0
;   gcodeZoffset,0
;   overrideMachineDefinition,0
;   machineTypeOverride,0
;   strokeXoverride,200
;   strokeYoverride,200
;   strokeZoverride,200
;   originOffsetXoverride,0
;   originOffsetYoverride,0
;   originOffsetZoverride,0
;   homeXdirOverride,-1
;   homeYdirOverride,-1
;   homeZdirOverride,-1
;   flipXoverride,1
;   flipYoverride,-1
;   flipZoverride,1
;   toolheadOffsets,0,0|0,0|0,0|0,0|0,0|0,0
;   overrideFirmwareConfiguration,0
;   firmwareTypeOverride,RepRap (Marlin/Repetier/Sprinter)
;   GPXconfigOverride,r2
;   baudRateOverride,115200
;   overridePrinterModels,0
;   printerModelsOverride
;   startingGcode,;Start Custom GCode,G21          ;metric values,G90          ;absolute positioning,M82         ;set extruder to absolute mode,M107       ;start with the fan off,,G28 ; home all axes,,G1 Z15.0 F6000,G92 E0,G1 F200 E3,G92 E0,,; G0 X5 Y15 Z5 F9000   ;Move to front,; G0 Z0.15                      ;Drop to bed,; G92 E0                         ;Zero Extruder Length,; G1 X40 E25 F500         ;Extrude 25mm of filament in 4cm line,; G92 E0                         ;Zero the extruded lenght,; G1 E-1 F500                ;Retract a little,; G1 X80 F4000             ;Quickly wipe away from filament line,; G1 Z0.3                       ;Raise and begin printing,
;   layerChangeGcode,
;   retractionGcode,
;   toolChangeGcode,
;   endingGcode,;End GCode,M104 S0           ; turn off temperature,M140 S0           ; heated bed heater off,,G91                   ; relative position,G1 E-2 F300     ; retract the filament,G1 Z+1,G28 X                ; move noozle to home position,G1 Y200            ; move bed forward to take out piece,,M84                  ;steppers off,
;   exportFileFormat,gcode
;   celebration,0
;   celebrationSong,Random Song
;   postProcessing,
;   defaultSpeed,3000
;   outlineUnderspeed,0.5
;   solidInfillUnderspeed,0.8
;   supportUnderspeed,0.8
;   rapidXYspeed,7200
;   rapidZspeed,1302
;   minBridgingArea,50
;   bridgingExtraInflation,0
;   bridgingExtrusionMultiplier,1
;   bridgingSpeedMultiplier,1
;   useFixedBridgingAngle,0
;   fixedBridgingAngle,0
;   applyBridgingToPerimeters,0
;   filamentDiameters,1.75|1.75|1.75|1.75|1.75|1.75
;   filamentPricesPerKg,360|46|46|46|46|46
;   filamentDensities,1.24|1.25|1.25|1.25|1.25|1.25
;   useMinPrintHeight,0
;   minPrintHeight,0
;   useMaxPrintHeight,0
;   maxPrintHeight,0
;   useDiaphragm,0
;   diaphragmLayerInterval,20
;   robustSlicing,1
;   mergeAllIntoSolid,0
;   onlyRetractWhenCrossingOutline,1
;   retractBetweenLayers,1
;   useRetractionMinTravel,0
;   retractionMinTravel,3
;   retractWhileWiping,0
;   onlyWipeOutlines,1
;   avoidCrossingOutline,0
;   maxMovementDetourFactor,3
;   toolChangeRetractionDistance,12
;   toolChangeExtraRestartDistance,-0.5
;   toolChangeRetractionSpeed,600
;   externalThinWallType,0
;   internalThinWallType,2
;   thinWallAllowedOverlapPercentage,10
;   singleExtrusionMinLength,1
;   singleExtrusionMinPrintingWidthPercentage,50
;   singleExtrusionMaxPrintingWidthPercentage,200
;   singleExtrusionEndpointExtension,0.2
;   horizontalSizeCompensation,0
G90
M82
M106 S0
M140 S55
M190 S55
M104 S200 T0
M109 S200 T0
;Start Custom GCode
G21          ;metric values
G90          ;absolute positioning
M82         ;set extruder to absolute mode
M107       ;start with the fan off
G28 ; home all axes
G1 Z15.0 F6000
G92 E0
G1 F200 E3
G92 E0
; G0 X5 Y15 Z5 F9000   ;Move to front
; G0 Z0.15                      ;Drop to bed
; G92 E0                         ;Zero Extruder Length
; G1 X40 E25 F500         ;Extrude 25mm of filament in 4cm line
; G92 E0                         ;Zero the extruded lenght
; G1 E-1 F500                ;Retract a little
; G1 X80 F4000             ;Quickly wipe away from filament line
; G1 Z0.3                       ;Raise and begin printing
G92 E0
G1 X0.000 Y0.000 Z0.000 E-3.0000 F1800
G1 X0.000 Y0.000 Z0.750 F1302
; process Process1
; layer 1, Z = 0.750
M105
M105
T0
; tool H0.750 W0.400
; skirt
G1 X98.918 Y87.465 Z0.750 F7200
G1 X98.918 Y87.465 Z0.750 E0.0000 F540
G92 E0
G1 X101.182 Y85.201 Z0.750 E0.3993 F900
G1 X101.843 Y84.927 Z0.750 E0.4886 F900
G1 X109.525 Y84.927 Z0.750 E1.4467 F900
G1 X110.186 Y85.201 Z0.750 E1.5360 F900
G1 X111.859 Y86.874 Z0.750 E1.8310 F900
G1 X112.516 Y86.874 Z0.750 E1.9130 F900
G1 X113.177 Y87.148 Z0.750 E2.0023 F900
G1 X114.138 Y88.109 Z0.750 E2.1718 F900
G1 X115.978 Y88.109 Z0.750 E2.4012 F900
G1 X116.640 Y88.383 Z0.750 E2.4905 F900
G1 X118.056 Y89.799 Z0.750 E2.7404 F900
G1 X125.046 Y89.799 Z0.750 E3.6122 F900
G1 X125.708 Y90.073 Z0.750 E3.7016 F900
G1 X127.971 Y92.337 Z0.750 E4.1008 F900
G1 X128.245 Y92.999 Z0.750 E4.1902 F900
G1 X128.245 Y95.145 Z0.750 E4.4579 F900
G1 X128.815 Y95.715 Z0.750 E4.5584 F900
G1 X129.089 Y96.377 Z0.750 E4.6477 F900
G1 X129.089 Y104.058 Z0.750 E5.6058 F900
G1 X128.815 Y104.720 Z0.750 E5.6951 F900
G1 X126.551 Y106.983 Z0.750 E6.0944 F900
G1 X125.890 Y107.257 Z0.750 E6.1837 F900
G1 X123.210 Y107.257 Z0.750 E6.5180 F900
G1 X122.874 Y107.396 Z0.750 E6.5633 F900
G1 X123.102 Y107.596 Z0.750 E6.6010 F900
G1 X123.256 Y107.771 Z0.750 E6.6301 F900
G1 X124.161 Y109.115 Z0.750 E6.8321 F900
G1 X124.276 Y109.356 Z0.750 E6.8655 F900
G1 X124.615 Y110.468 Z0.750 E7.0105 F900
G1 X124.655 Y110.732 Z0.750 E7.0438 F900
G1 X124.655 Y112.542 Z0.750 E7.2696 F900
G1 X124.615 Y112.807 Z0.750 E7.3029 F900
G1 X124.276 Y113.919 Z0.750 E7.4480 F900
G1 X124.161 Y114.160 Z0.750 E7.4813 F900
G1 X123.256 Y115.504 Z0.750 E7.6834 F900
G1 X123.102 Y115.679 Z0.750 E7.7124 F900
G1 X122.846 Y115.903 Z0.750 E7.7549 F900
G1 X122.872 Y115.957 Z0.750 E7.7624 F900
G1 X123.211 Y117.069 Z0.750 E7.9074 F900
G1 X123.251 Y117.334 Z0.750 E7.9407 F900
G1 X123.251 Y119.144 Z0.750 E8.1665 F900
G1 X123.211 Y119.408 Z0.750 E8.1998 F900
G1 X122.872 Y120.520 Z0.750 E8.3448 F900
G1 X122.757 Y120.761 Z0.750 E8.3782 F900
G1 X121.852 Y122.105 Z0.750 E8.5803 F900
G1 X121.698 Y122.280 Z0.750 E8.6093 F900
G1 X120.938 Y122.947 Z0.750 E8.7354 F900
G1 X120.745 Y123.076 Z0.750 E8.7644 F900
G1 X119.697 Y123.598 Z0.750 E8.9103 F900
G1 X119.606 Y123.637 Z0.750 E8.9228 F900
G1 X119.199 Y123.786 Z0.750 E8.9768 F900
G1 X119.103 Y123.816 Z0.750 E8.9893 F900
G1 X118.824 Y123.884 Z0.750 E9.0252 F900
G1 X118.824 Y129.645 Z0.750 E9.7437 F900
G1 X118.745 Y129.833 Z0.750 E9.7692 F900
G1 X118.745 Y131.645 Z0.750 E9.9952 F900
G1 X118.471 Y132.307 Z0.750 E10.0845 F900
G1 X116.208 Y134.571 Z0.750 E10.4838 F900
G1 X115.546 Y134.845 Z0.750 E10.5731 F900
G1 X113.449 Y134.845 Z0.750 E10.8346 F900
G1 X113.050 Y135.244 Z0.750 E10.9050 F900
G1 X112.388 Y135.518 Z0.750 E10.9943 F900
G1 X104.707 Y135.518 Z0.750 E11.9524 F900
G1 X104.046 Y135.244 Z0.750 E12.0417 F900
G1 X101.782 Y132.980 Z0.750 E12.4410 F900
G1 X101.508 Y132.318 Z0.750 E12.5303 F900
G1 X101.508 Y129.706 Z0.750 E12.8562 F900
G1 X101.474 Y129.625 Z0.750 E12.8671 F900
G1 X101.474 Y123.396 Z0.750 E13.6440 F900
G1 X101.342 Y123.444 Z0.750 E13.6615 F900
G1 X101.247 Y123.474 Z0.750 E13.6740 F900
G1 X100.344 Y123.694 Z0.750 E13.7899 F900
G1 X100.129 Y123.720 Z0.750 E13.8169 F900
G1 X99.190 Y123.720 Z0.750 E13.9341 F900
G1 X98.975 Y123.694 Z0.750 E13.9610 F900
G1 X98.072 Y123.474 Z0.750 E14.0770 F900
G1 X97.977 Y123.444 Z0.750 E14.0894 F900
G1 X97.570 Y123.295 Z0.750 E14.1435 F900
G1 X97.478 Y123.256 Z0.750 E14.1560 F900
G1 X96.430 Y122.734 Z0.750 E14.3019 F900
G1 X96.237 Y122.605 Z0.750 E14.3309 F900
G1 X95.477 Y121.938 Z0.750 E14.4570 F900
G1 X95.323 Y121.763 Z0.750 E14.4860 F900
G1 X94.418 Y120.419 Z0.750 E14.6881 F900
G1 X94.303 Y120.178 Z0.750 E14.7215 F900
G1 X93.964 Y119.066 Z0.750 E14.8665 F900
G1 X93.925 Y118.802 Z0.750 E14.8998 F900
G1 X93.925 Y116.992 Z0.750 E15.1256 F900
G1 X93.964 Y116.727 Z0.750 E15.1589 F900
G1 X94.303 Y115.615 Z0.750 E15.3039 F900
G1 X94.418 Y115.374 Z0.750 E15.3372 F900
G1 X95.323 Y114.030 Z0.750 E15.5393 F900
G1 X95.477 Y113.856 Z0.750 E15.5683 F900
G1 X96.237 Y113.189 Z0.750 E15.6945 F900
G1 X96.430 Y113.059 Z0.750 E15.7235 F900
G1 X97.478 Y112.538 Z0.750 E15.8694 F900
G1 X97.570 Y112.498 Z0.750 E15.8819 F900
G1 X97.977 Y112.349 Z0.750 E15.9359 F900
G1 X98.072 Y112.320 Z0.750 E15.9484 F900
G1 X98.975 Y112.099 Z0.750 E16.0644 F900
G1 X99.190 Y112.073 Z0.750 E16.0913 F900
G1 X100.129 Y112.073 Z0.750 E16.2085 F900
G1 X100.344 Y112.099 Z0.750 E16.2354 F900
G1 X101.247 Y112.320 Z0.750 E16.3514 F900
G1 X101.342 Y112.349 Z0.750 E16.3639 F900
G1 X101.445 Y112.387 Z0.750 E16.3775 F900
G1 X101.745 Y111.942 Z0.750 E16.4444 F900
G1 X101.899 Y111.768 Z0.750 E16.4734 F900
G1 X102.152 Y111.546 Z0.750 E16.5154 F900
G1 X102.124 Y111.489 Z0.750 E16.5233 F900
G1 X101.785 Y110.377 Z0.750 E16.6683 F900
G1 X101.746 Y110.112 Z0.750 E16.7016 F900
G1 X101.746 Y108.302 Z0.750 E16.9274 F900
G1 X101.785 Y108.038 Z0.750 E16.9607 F900
G1 X102.124 Y106.926 Z0.750 E17.1057 F900
G1 X102.239 Y106.685 Z0.750 E17.1391 F900
G1 X103.144 Y105.341 Z0.750 E17.3411 F900
G1 X103.298 Y105.166 Z0.750 E17.3702 F900
G1 X104.058 Y104.499 Z0.750 E17.4963 F900
G1 X104.251 Y104.370 Z0.750 E17.5253 F900
G1 X105.138 Y103.928 Z0.750 E17.6488 F900
G1 X105.093 Y103.910 Z0.750 E17.6547 F900
G1 X102.830 Y101.646 Z0.750 E18.0540 F900
G1 X102.556 Y100.985 Z0.750 E18.1434 F900
G1 X102.556 Y100.231 Z0.750 E18.2373 F900
G1 X102.289 Y100.121 Z0.750 E18.2734 F900
G1 X100.025 Y97.857 Z0.750 E18.6727 F900
G1 X99.826 Y97.378 Z0.750 E18.7374 F900
G1 X98.918 Y96.469 Z0.750 E18.8976 F900
G1 X98.644 Y95.808 Z0.750 E18.9869 F900
G1 X98.644 Y88.126 Z0.750 E19.9450 F900
G1 X98.918 Y87.465 Z0.750 E20.0343 F900
G92 E0
G1 X98.918 Y87.465 Z0.750 E-3.0000 F1800
G1 X99.257 Y87.691 Z0.750 F7200
G1 X99.257 Y87.691 Z0.750 E0.0000 F1800
G92 E0
G1 X101.408 Y85.540 Z0.750 E0.3794 F900
G1 X101.923 Y85.327 Z0.750 E0.4489 F900
G1 X109.445 Y85.327 Z0.750 E1.3871 F900
G1 X109.960 Y85.540 Z0.750 E1.4566 F900
G1 X111.693 Y87.274 Z0.750 E1.7624 F900
G1 X112.436 Y87.274 Z0.750 E1.8550 F900
G1 X112.951 Y87.487 Z0.750 E1.9245 F900
G1 X113.973 Y88.509 Z0.750 E2.1048 F900
G1 X115.898 Y88.509 Z0.750 E2.3450 F900
G1 X116.413 Y88.722 Z0.750 E2.4144 F900
G1 X117.891 Y90.199 Z0.750 E2.6751 F900
G1 X124.966 Y90.199 Z0.750 E3.5576 F900
G1 X125.481 Y90.412 Z0.750 E3.6271 F900
G1 X127.632 Y92.564 Z0.750 E4.0065 F900
G1 X127.845 Y93.078 Z0.750 E4.0760 F900
G1 X127.845 Y95.311 Z0.750 E4.3545 F900
G1 X128.476 Y95.942 Z0.750 E4.4657 F900
G1 X128.689 Y96.456 Z0.750 E4.5352 F900
G1 X128.689 Y103.979 Z0.750 E5.4734 F900
G1 X128.476 Y104.493 Z0.750 E5.5429 F900
G1 X126.325 Y106.644 Z0.750 E5.9223 F900
G1 X125.810 Y106.857 Z0.750 E5.9918 F900
G1 X123.083 Y106.857 Z0.750 E6.3319 F900
G1 X123.050 Y106.891 Z0.750 E6.3378 F900
G1 X122.535 Y107.104 Z0.750 E6.4072 F900
G1 X121.862 Y107.104 Z0.750 E6.4912 F900
G1 X121.947 Y107.146 Z0.750 E6.5031 F900
G1 X122.098 Y107.247 Z0.750 E6.5257 F900
G1 X122.819 Y107.880 Z0.750 E6.6453 F900
G1 X122.938 Y108.016 Z0.750 E6.6679 F900
G1 X123.812 Y109.313 Z0.750 E6.8631 F900
G1 X123.902 Y109.501 Z0.750 E6.8890 F900
G1 X124.224 Y110.556 Z0.750 E7.0266 F900
G1 X124.255 Y110.762 Z0.750 E7.0525 F900
G1 X124.255 Y112.513 Z0.750 E7.2709 F900
G1 X124.224 Y112.718 Z0.750 E7.2968 F900
G1 X123.902 Y113.774 Z0.750 E7.4344 F900
G1 X123.812 Y113.961 Z0.750 E7.4604 F900
G1 X122.938 Y115.259 Z0.750 E7.6555 F900
G1 X122.819 Y115.395 Z0.750 E7.6781 F900
G1 X122.341 Y115.814 Z0.750 E7.7574 F900
G1 X122.408 Y115.915 Z0.750 E7.7725 F900
G1 X122.498 Y116.103 Z0.750 E7.7985 F900
G1 X122.820 Y117.158 Z0.750 E7.9361 F900
G1 X122.851 Y117.363 Z0.750 E7.9620 F900
G1 X122.851 Y119.114 Z0.750 E8.1804 F900
G1 X122.820 Y119.320 Z0.750 E8.2063 F900
G1 X122.498 Y120.375 Z0.750 E8.3439 F900
G1 X122.408 Y120.563 Z0.750 E8.3698 F900
G1 X121.534 Y121.861 Z0.750 E8.5650 F900
G1 X121.415 Y121.996 Z0.750 E8.5876 F900
G1 X120.694 Y122.629 Z0.750 E8.7072 F900
G1 X120.543 Y122.730 Z0.750 E8.7298 F900
G1 X119.529 Y123.235 Z0.750 E8.8711 F900
G1 X119.458 Y123.266 Z0.750 E8.8808 F900
G1 X119.072 Y123.407 Z0.750 E8.9321 F900
G1 X118.997 Y123.430 Z0.750 E8.9418 F900
G1 X118.424 Y123.570 Z0.750 E9.0154 F900
G1 X118.424 Y129.565 Z0.750 E9.7632 F900
G1 X118.345 Y129.754 Z0.750 E9.7886 F900
G1 X118.345 Y131.566 Z0.750 E10.0147 F900
G1 X118.132 Y132.080 Z0.750 E10.0841 F900
G1 X115.981 Y134.231 Z0.750 E10.4636 F900
G1 X115.467 Y134.445 Z0.750 E10.5330 F900
G1 X113.284 Y134.445 Z0.750 E10.8053 F900
G1 X112.823 Y134.905 Z0.750 E10.8865 F900
G1 X112.309 Y135.118 Z0.750 E10.9559 F900
G1 X104.787 Y135.118 Z0.750 E11.8941 F900
G1 X104.272 Y134.905 Z0.750 E11.9636 F900
G1 X102.121 Y132.753 Z0.750 E12.3431 F900
G1 X101.908 Y132.239 Z0.750 E12.4125 F900
G1 X101.908 Y129.626 Z0.750 E12.7384 F900
G1 X101.874 Y129.546 Z0.750 E12.7493 F900
G1 X101.874 Y122.793 Z0.750 E13.5915 F900
G1 X101.673 Y122.893 Z0.750 E13.6196 F900
