; generated by Slic3r Prusa Edition 1.41.1-beta+win64 on 2018-10-07 at 16:20:55

; ## Parametros optimizados por Hugo Antolini  -  2018-10-06 ##

; external perimeters extrusion width = 0.40mm
; perimeters extrusion width = 0.40mm
; infill extrusion width = 0.40mm
; solid infill extrusion width = 0.40mm
; top infill extrusion width = 0.40mm
; first layer extrusion width = 0.40mm

M201 X9000 Y9000 Z500 E10000 ; sets maximum accelerations, mm/sec^2
M203 X500 Y500 Z12 E120 ; sets maximum feedrates, mm/sec
M204 P1500 R1500 T1500 ; sets acceleration (P, T) and retract acceleration (R), mm/sec^2
M205 X10.00 Y10.00 Z0.20 E2.50 ; sets the jerk limits, mm/sec
M205 S0 T0 ; sets the minimum extruding and travel feed rate, mm/sec
M107 ; disable fan
M190 S60 ; set bed temperature and wait for it to be reached
M104 S200 ; set temperature
G21  ;metric values
G90  ;absolute positioning
M82  ;set extruder to absolute mode
M107  ;start with the fan off

G28  ; home all axes

G1 Z15.0 F6000
G92 E0
G1 F200 E3
G92 E0

; G0 X5 Y15 Z5 F9000  ;Move to front
; G0 Z0.15  ;Drop to bed
; G92 E0  ;Zero Extruder Length
; G1 X40 E25 F500  ;Extrude 25mm of filament in 4cm line
; G92 E0  ;Zero the extruded lenght
; G1 E-1 F500  ;Retract a little
; G1 X80 F4000  ;Quickly wipe away from filament line
; G1 Z0.3  ;Raise and begin printing
; Filament gcode
M109 S200 ; set temperature and wait for it to be reached
G21 ; set units to millimeters
G90 ; use absolute coordinates
M82 ; use absolute distances for extrusion
G92 E0 ; reset extrusion distance
G1 Z0.300 F7200.000 ; move to next layer (0)
G1 E-3.00000 F2400.00000 ; retract
G92 E0 ; reset extrusion distance
G1 X78.036 Y66.557 F7200.000 ; move to first skirt point
G1 E3.00000 F2400.00000 ; unretract
G1 F900
G1 X77.776 Y65.411 E3.04918 ; skirt
G1 X77.772 Y51.271 E3.64110 ; skirt
G1 X77.858 Y50.551 E3.67146 ; skirt
G1 X78.091 Y49.864 E3.70183 ; skirt
G1 X78.459 Y49.239 E3.73219 ; skirt
G1 X78.952 Y48.700 E3.76275 ; skirt
G1 X79.434 Y48.342 E3.78791 ; skirt
G1 X79.971 Y48.070 E3.81307 ; skirt
G1 X80.545 Y47.894 E3.83823 ; skirt
G1 X81.142 Y47.819 E3.86338 ; skirt
G1 X100.883 Y47.816 E4.68977 ; skirt
G1 X136.257 Y51.536 E6.17868 ; skirt
G1 X137.149 Y51.753 E6.21713 ; skirt
G1 X137.932 Y52.179 E6.25443 ; skirt
G1 X138.582 Y52.787 E6.29172 ; skirt
G1 X139.061 Y53.544 E6.32921 ; skirt
G1 X139.331 Y54.393 E6.36650 ; skirt
G1 X139.389 Y54.996 E6.39185 ; skirt
G1 X139.388 Y61.495 E6.66389 ; skirt
G1 X139.322 Y62.101 E6.68943 ; skirt
G1 X139.151 Y62.692 E6.71517 ; skirt
G1 X138.712 Y63.493 E6.75342 ; skirt
G1 X138.081 Y64.154 E6.79168 ; skirt
G1 X137.300 Y64.630 E6.82994 ; skirt
G1 X136.428 Y64.888 E6.86800 ; skirt
G1 X101.161 Y68.720 E8.35300 ; skirt
G1 X81.101 Y68.726 E9.19270 ; skirt
G1 X80.411 Y68.621 E9.22191 ; skirt
G1 X79.760 Y68.384 E9.25092 ; skirt
G1 X79.164 Y68.021 E9.28013 ; skirt
G1 X78.655 Y67.550 E9.30915 ; skirt
G1 X78.067 Y66.608 E9.35562 ; skirt
G1 X78.353 Y66.433 F7200.000 ; move to first skirt point
G1 F900
G1 X78.111 Y65.374 E9.40111 ; skirt
G1 X78.107 Y51.274 E9.99135 ; skirt
G1 X78.188 Y50.615 E10.01912 ; skirt
G1 X78.403 Y49.988 E10.04689 ; skirt
G1 X78.744 Y49.419 E10.07467 ; skirt
G1 X79.196 Y48.933 E10.10244 ; skirt
G1 X80.113 Y48.375 E10.14737 ; skirt
G1 X81.168 Y48.154 E10.19248 ; skirt
G1 X100.883 Y48.152 E11.01776 ; skirt
G1 X136.221 Y51.869 E12.50519 ; skirt
G1 X137.002 Y52.056 E12.53882 ; skirt
G1 X137.722 Y52.441 E12.57299 ; skirt
G1 X138.323 Y53.000 E12.60735 ; skirt
G1 X138.761 Y53.695 E12.64172 ; skirt
G1 X139.005 Y54.474 E12.67589 ; skirt
G1 X139.053 Y61.482 E12.96926 ; skirt
G1 X138.848 Y62.545 E13.01455 ; skirt
G1 X138.452 Y63.279 E13.04946 ; skirt
G1 X137.876 Y63.888 E13.08456 ; skirt
G1 X137.165 Y64.323 E13.11946 ; skirt
G1 X136.365 Y64.558 E13.15437 ; skirt
G1 X101.129 Y68.385 E14.63802 ; skirt
G1 X81.127 Y68.392 E15.47529 ; skirt
G1 X80.497 Y68.297 E15.50197 ; skirt
G1 X79.899 Y68.078 E15.52864 ; skirt
G1 X79.356 Y67.745 E15.55531 ; skirt
G1 X78.888 Y67.306 E15.58217 ; skirt
G1 X78.384 Y66.484 E15.62251 ; skirt
G1 X78.641 Y66.263 F7200.000 ; move to first skirt point
G1 F900
G1 X78.445 Y65.343 E15.66188 ; skirt
G1 X78.443 Y51.277 E16.25068 ; skirt
G1 X78.516 Y50.683 E16.27573 ; skirt
G1 X78.714 Y50.114 E16.30095 ; skirt
G1 X79.026 Y49.603 E16.32599 ; skirt
G1 X79.437 Y49.168 E16.35104 ; skirt
G1 X80.255 Y48.680 E16.39093 ; skirt
G1 X81.193 Y48.489 E16.43099 ; skirt
G1 X100.883 Y48.488 E17.25521 ; skirt
G1 X136.181 Y52.203 E18.74097 ; skirt
G1 X136.860 Y52.362 E18.77017 ; skirt
G1 X137.518 Y52.708 E18.80128 ; skirt
G1 X138.063 Y53.212 E18.83238 ; skirt
G1 X138.459 Y53.841 E18.86348 ; skirt
G1 X138.678 Y54.555 E18.89475 ; skirt
G1 X138.717 Y61.471 E19.18423 ; skirt
G1 X138.542 Y62.403 E19.22395 ; skirt
G1 X138.189 Y63.071 E19.25557 ; skirt
G1 X137.672 Y63.622 E19.28719 ; skirt
G1 X137.028 Y64.017 E19.31881 ; skirt
G1 X136.303 Y64.228 E19.35043 ; skirt
G1 X101.102 Y68.051 E20.83261 ; skirt
G1 X81.157 Y68.057 E21.66753 ; skirt
G1 X80.581 Y67.972 E21.69188 ; skirt
G1 X80.035 Y67.771 E21.71623 ; skirt
G1 X79.545 Y67.466 E21.74041 ; skirt
G1 X79.123 Y67.065 E21.76476 ; skirt
G1 X78.672 Y66.314 E21.80145 ; skirt
G1 X78.960 Y66.144 F7200.000 ; move to first skirt point
G1 F900
G1 X78.780 Y65.314 E21.83701 ; skirt
G1 X78.778 Y51.280 E22.42451 ; skirt
G1 X78.846 Y50.749 E22.44688 ; skirt
G1 X79.024 Y50.245 E22.46925 ; skirt
G1 X79.305 Y49.791 E22.49163 ; skirt
G1 X79.676 Y49.406 E22.51400 ; skirt
G1 X80.394 Y48.986 E22.54886 ; skirt
G1 X81.211 Y48.824 E22.58371 ; skirt
G1 X100.882 Y48.823 E23.40716 ; skirt
G1 X136.145 Y52.536 E24.89144 ; skirt
G1 X136.727 Y52.670 E24.91642 ; skirt
G1 X137.318 Y52.978 E24.94431 ; skirt
G1 X137.808 Y53.430 E24.97221 ; skirt
G1 X138.160 Y53.996 E25.00011 ; skirt
G1 X138.352 Y54.638 E25.02817 ; skirt
G1 X138.382 Y61.460 E25.31373 ; skirt
G1 X138.234 Y62.267 E25.34810 ; skirt
G1 X137.923 Y62.865 E25.37632 ; skirt
G1 X137.463 Y63.359 E25.40454 ; skirt
G1 X136.889 Y63.711 E25.43277 ; skirt
G1 X136.241 Y63.898 E25.46099 ; skirt
G1 X101.071 Y67.717 E26.94186 ; skirt
G1 X81.180 Y67.722 E27.77451 ; skirt
G1 X80.666 Y67.647 E27.79623 ; skirt
G1 X80.176 Y67.467 E27.81812 ; skirt
G1 X79.736 Y67.190 E27.83984 ; skirt
G1 X79.361 Y66.826 E27.86173 ; skirt
G1 X78.990 Y66.196 E27.89233 ; skirt
G1 X80.320 Y67.163 F7200.000 ; move to first skirt point
G1 F900
G1 X79.605 Y66.595 E27.93057 ; skirt
G1 X79.252 Y65.983 E27.96013 ; skirt
G1 X79.115 Y65.290 E27.98969 ; skirt
G1 X79.114 Y51.287 E28.57588 ; skirt
G1 X79.173 Y50.822 E28.59549 ; skirt
G1 X79.331 Y50.381 E28.61509 ; skirt
G1 X79.579 Y49.984 E28.63470 ; skirt
G1 X79.907 Y49.650 E28.65430 ; skirt
G1 X80.526 Y49.295 E28.68416 ; skirt
G1 X81.230 Y49.159 E28.71417 ; skirt
G1 X100.882 Y49.159 E29.53681 ; skirt
G1 X136.110 Y52.870 E31.01962 ; skirt
G1 X136.595 Y52.980 E31.04043 ; skirt
G1 X137.118 Y53.247 E31.06503 ; skirt
G1 X137.552 Y53.648 E31.08977 ; skirt
G1 X137.861 Y54.148 E31.11436 ; skirt
G1 X138.024 Y54.716 E31.13910 ; skirt
G1 X138.046 Y61.450 E31.42097 ; skirt
G1 X137.924 Y62.138 E31.45023 ; skirt
G1 X137.656 Y62.661 E31.47482 ; skirt
G1 X137.255 Y63.095 E31.49957 ; skirt
G1 X136.752 Y63.405 E31.52431 ; skirt
G1 X136.184 Y63.567 E31.54905 ; skirt
G1 X101.044 Y67.382 E33.02866 ; skirt
G1 X81.201 Y67.387 E33.85926 ; skirt
G1 X80.378 Y67.178 E33.89484 ; skirt
; PURGING FINISHED
G1 E30.89484 F2400.00000 ; retract
G92 E0 ; reset extrusion distance
G1 X86.448 Y64.685 F7200.000 ; move to first perimeter point
G1 E3.00000 F2400.00000 ; unretract
G1 F900
G1 X81.817 Y64.685 E3.19387 ; perimeter
G1 X81.817 Y62.309 E3.29332 ; perimeter
G1 X98.414 Y62.309 E3.98807 ; perimeter
G1 X98.414 Y54.238 E4.32594 ; perimeter
G1 X81.817 Y54.238 E5.02069 ; perimeter
G1 X81.817 Y51.862 E5.12014 ; perimeter
G1 X100.343 Y51.862 E5.89564 ; perimeter
G1 X100.343 Y55.561 E6.05048 ; perimeter
G1 X135.343 Y55.561 E7.51559 ; perimeter
G1 X135.343 Y60.885 E7.73844 ; perimeter
G1 X100.343 Y60.885 E9.20355 ; perimeter
G1 X100.343 Y64.685 E9.36262 ; perimeter
G1 X86.508 Y64.685 E9.94174 ; perimeter
G1 X86.508 Y65.021 F7200.000 ; move to first perimeter point
G1 F900
G1 X81.481 Y65.021 E10.15217 ; perimeter
G1 X81.481 Y61.974 E10.27972 ; perimeter
G1 X98.078 Y61.974 E10.97447 ; perimeter
G1 X98.078 Y54.574 E11.28424 ; perimeter
G1 X81.481 Y54.574 E11.97899 ; perimeter
G1 X81.481 Y51.527 E12.10654 ; perimeter
G1 X100.678 Y51.527 E12.91013 ; perimeter
G1 X100.678 Y55.226 E13.06497 ; perimeter
G1 X135.678 Y55.226 E14.53009 ; perimeter
G1 X135.678 Y61.221 E14.78104 ; perimeter
G1 X100.678 Y61.221 E16.24615 ; perimeter
G1 X100.678 Y65.021 E16.40522 ; perimeter
G1 X86.568 Y65.021 E16.99587 ; perimeter
G1 X86.279 Y64.693 F7200.000 ; move inwards before travel
G1 E13.99587 F2400.00000 ; retract
G92 E0 ; reset extrusion distance
G1 X82.496 Y64.685 F7200.000 ; move to first infill point
G1 E3.00000 F2400.00000 ; unretract
G1 F900
G1 X81.968 Y64.157 E3.03129 ; infill
G1 X81.968 Y63.682 E3.05120 ; infill
G1 X82.820 Y64.534 E3.10170 ; infill
G1 X83.295 Y64.534 E3.12161 ; infill
G1 X81.968 Y63.207 E3.20027 ; infill
G1 X81.968 Y62.732 E3.22018 ; infill
G1 X83.771 Y64.534 E3.32699 ; infill
G1 X84.246 Y64.534 E3.34690 ; infill
G1 X82.172 Y62.460 E3.46979 ; infill
G1 X82.647 Y62.460 E3.48970 ; infill
G1 X84.721 Y64.534 E3.61259 ; infill
G1 X85.196 Y64.534 E3.63250 ; infill
G1 X83.122 Y62.460 E3.75539 ; infill
G1 X83.597 Y62.460 E3.77530 ; infill
G1 X85.671 Y64.534 E3.89819 ; infill
G1 X86.146 Y64.534 E3.91810 ; infill
G1 X84.072 Y62.460 E4.04099 ; infill
G1 X84.548 Y62.460 E4.06090 ; infill
G1 X86.621 Y64.534 E4.18379 ; infill
G1 X87.096 Y64.534 E4.20370 ; infill
G1 X85.023 Y62.460 E4.32659 ; infill
G1 X85.498 Y62.460 E4.34650 ; infill
G1 X87.572 Y64.534 E4.46939 ; infill
G1 X88.047 Y64.534 E4.48930 ; infill
G1 X85.973 Y62.460 E4.61219 ; infill
G1 X86.448 Y62.460 E4.63210 ; infill
G1 X88.522 Y64.534 E4.75500 ; infill
G1 X88.997 Y64.534 E4.77490 ; infill
G1 X86.923 Y62.460 E4.89780 ; infill
G1 X87.398 Y62.460 E4.91770 ; infill
G1 X89.472 Y64.534 E5.04060 ; infill
G1 X89.947 Y64.534 E5.06050 ; infill
G1 X87.873 Y62.460 E5.18340 ; infill
G1 X88.349 Y62.460 E5.20331 ; infill
G1 X90.422 Y64.534 E5.32620 ; infill
G1 X90.897 Y64.534 E5.34611 ; infill
G1 X88.824 Y62.460 E5.46900 ; infill
G1 X89.299 Y62.460 E5.48891 ; infill
G1 X91.373 Y64.534 E5.61180 ; infill
G1 X91.848 Y64.534 E5.63171 ; infill
G1 X89.774 Y62.460 E5.75460 ; infill
G1 X90.249 Y62.460 E5.77451 ; infill
G1 X92.323 Y64.534 E5.89740 ; infill
G1 X92.798 Y64.534 E5.91731 ; infill
G1 X90.724 Y62.460 E6.04020 ; infill
G1 X91.199 Y62.460 E6.06011 ; infill
G1 X93.273 Y64.534 E6.18300 ; infill
G1 X93.748 Y64.534 E6.20291 ; infill
G1 X91.674 Y62.460 E6.32580 ; infill
G1 X92.150 Y62.460 E6.34571 ; infill
G1 X94.223 Y64.534 E6.46860 ; infill
G1 X94.698 Y64.534 E6.48851 ; infill
G1 X92.625 Y62.460 E6.61140 ; infill
G1 X93.100 Y62.460 E6.63131 ; infill
G1 X95.174 Y64.534 E6.75420 ; infill
G1 X95.649 Y64.534 E6.77411 ; infill
G1 X93.575 Y62.460 E6.89700 ; infill
G1 X94.050 Y62.460 E6.91691 ; infill
G1 X96.124 Y64.534 E7.03980 ; infill
G1 X96.599 Y64.534 E7.05971 ; infill
G1 X94.525 Y62.460 E7.18260 ; infill
G1 X95.000 Y62.460 E7.20251 ; infill
G1 X97.074 Y64.534 E7.32540 ; infill
G1 X97.549 Y64.534 E7.34531 ; infill
G1 X95.475 Y62.460 E7.46820 ; infill
G1 X95.951 Y62.460 E7.48811 ; infill
G1 X98.024 Y64.534 E7.61100 ; infill
G1 X98.499 Y64.534 E7.63091 ; infill
G1 X96.426 Y62.460 E7.75380 ; infill
G1 X96.901 Y62.460 E7.77371 ; infill
G1 X98.975 Y64.534 E7.89660 ; infill
G1 X99.450 Y64.534 E7.91651 ; infill
G1 X97.376 Y62.460 E8.03940 ; infill
G1 X97.851 Y62.460 E8.05931 ; infill
G1 X99.925 Y64.534 E8.18220 ; infill
G1 X100.192 Y64.534 E8.19339 ; infill
G1 X100.192 Y64.326 E8.20211 ; infill
G1 X98.326 Y62.460 E8.31267 ; infill
G1 X98.565 Y62.460 E8.32268 ; infill
G1 X98.565 Y62.224 E8.33258 ; infill
G1 X100.192 Y63.851 E8.42898 ; infill
G1 X100.192 Y63.376 E8.44889 ; infill
G1 X98.565 Y61.749 E8.54529 ; infill
G1 X98.565 Y61.274 E8.56520 ; infill
G1 X100.192 Y62.900 E8.66160 ; infill
G1 X100.192 Y62.425 E8.68151 ; infill
G1 X98.565 Y60.799 E8.77791 ; infill
G1 X98.565 Y60.323 E8.79782 ; infill
G1 X100.192 Y61.950 E8.89422 ; infill
G1 X100.192 Y61.475 E8.91413 ; infill
G1 X98.565 Y59.848 E9.01053 ; infill
G1 X98.565 Y59.373 E9.03044 ; infill
G1 X100.192 Y61.000 E9.12684 ; infill
G1 X100.192 Y60.734 E9.13799 ; infill
G1 X100.401 Y60.734 E9.14675 ; infill
G1 X98.565 Y58.898 E9.25555 ; infill
G1 X98.565 Y58.423 E9.27546 ; infill
G1 X100.876 Y60.734 E9.41241 ; infill
G1 X101.351 Y60.734 E9.43231 ; infill
G1 X98.565 Y57.948 E9.59742 ; infill
G1 X98.565 Y57.473 E9.61733 ; infill
G1 X101.826 Y60.734 E9.81059 ; infill
G1 X102.301 Y60.734 E9.83050 ; infill
G1 X98.565 Y56.998 E10.05192 ; infill
G1 X98.565 Y56.522 E10.07183 ; infill
G1 X102.777 Y60.734 E10.32140 ; infill
G1 X103.252 Y60.734 E10.34131 ; infill
G1 X98.565 Y56.047 E10.61905 ; infill
G1 X98.565 Y55.572 E10.63895 ; infill
G1 X103.727 Y60.734 E10.94484 ; infill
G1 X104.202 Y60.734 E10.96475 ; infill
G1 X98.565 Y55.097 E11.29879 ; infill
G1 X98.565 Y54.622 E11.31870 ; infill
G1 X104.828 Y60.885 E11.68985 ; infill
G1 X105.303 Y60.885 F7200.000 ; move to first infill point
G1 F900
G1 X96.431 Y52.013 E12.21560 ; infill
G1 X95.956 Y52.013 E12.23551 ; infill
G1 X98.030 Y54.087 E12.35840 ; infill
G1 X97.555 Y54.087 E12.37831 ; infill
G1 X95.481 Y52.013 E12.50120 ; infill
G1 X95.006 Y52.013 E12.52111 ; infill
G1 X97.080 Y54.087 E12.64400 ; infill
G1 X96.605 Y54.087 E12.66391 ; infill
G1 X94.531 Y52.013 E12.78680 ; infill
G1 X94.056 Y52.013 E12.80671 ; infill
G1 X96.130 Y54.087 E12.92960 ; infill
G1 X95.654 Y54.087 E12.94951 ; infill
G1 X93.581 Y52.013 E13.07240 ; infill
G1 X93.106 Y52.013 E13.09231 ; infill
G1 X95.179 Y54.087 E13.21520 ; infill
G1 X94.704 Y54.087 E13.23511 ; infill
G1 X92.630 Y52.013 E13.35800 ; infill
G1 X92.155 Y52.013 E13.37791 ; infill
G1 X94.229 Y54.087 E13.50080 ; infill
G1 X93.754 Y54.087 E13.52071 ; infill
G1 X91.680 Y52.013 E13.64360 ; infill
G1 X91.205 Y52.013 E13.66351 ; infill
G1 X93.279 Y54.087 E13.78640 ; infill
G1 X92.804 Y54.087 E13.80631 ; infill
G1 X90.730 Y52.013 E13.92920 ; infill
G1 X90.255 Y52.013 E13.94911 ; infill
G1 X92.329 Y54.087 E14.07200 ; infill
G1 X91.853 Y54.087 E14.09191 ; infill
G1 X89.780 Y52.013 E14.21480 ; infill
G1 X89.305 Y52.013 E14.23471 ; infill
G1 X91.378 Y54.087 E14.35760 ; infill
G1 X90.903 Y54.087 E14.37751 ; infill
G1 X88.829 Y52.013 E14.50040 ; infill
G1 X88.354 Y52.013 E14.52031 ; infill
G1 X90.428 Y54.087 E14.64320 ; infill
G1 X89.953 Y54.087 E14.66311 ; infill
G1 X87.879 Y52.013 E14.78600 ; infill
G1 X87.404 Y52.013 E14.80591 ; infill
G1 X89.478 Y54.087 E14.92880 ; infill
G1 X89.003 Y54.087 E14.94871 ; infill
G1 X86.929 Y52.013 E15.07160 ; infill
G1 X86.454 Y52.013 E15.09151 ; infill
G1 X88.528 Y54.087 E15.21440 ; infill
G1 X88.052 Y54.087 E15.23431 ; infill
G1 X85.979 Y52.013 E15.35720 ; infill
G1 X85.504 Y52.013 E15.37711 ; infill
G1 X87.577 Y54.087 E15.50000 ; infill
G1 X87.102 Y54.087 E15.51991 ; infill
G1 X85.028 Y52.013 E15.64280 ; infill
G1 X84.553 Y52.013 E15.66271 ; infill
G1 X86.627 Y54.087 E15.78560 ; infill
G1 X86.152 Y54.087 E15.80551 ; infill
G1 X84.078 Y52.013 E15.92840 ; infill
G1 X83.603 Y52.013 E15.94831 ; infill
G1 X85.677 Y54.087 E16.07120 ; infill
G1 X85.202 Y54.087 E16.09111 ; infill
G1 X83.128 Y52.013 E16.21400 ; infill
G1 X82.653 Y52.013 E16.23391 ; infill
G1 X84.727 Y54.087 E16.35680 ; infill
G1 X84.251 Y54.087 E16.37671 ; infill
G1 X82.178 Y52.013 E16.49960 ; infill
G1 X81.968 Y52.013 E16.50839 ; infill
G1 X81.968 Y52.279 E16.51951 ; infill
G1 X83.776 Y54.087 E16.62667 ; infill
G1 X83.301 Y54.087 E16.64658 ; infill
G1 X81.968 Y52.754 E16.72558 ; infill
G1 X81.968 Y53.229 E16.74549 ; infill
G1 X82.826 Y54.087 E16.79633 ; infill
G1 X82.351 Y54.087 E16.81624 ; infill
G1 X81.817 Y53.553 E16.84788 ; infill
G1 E13.84788 F2400.00000 ; retract
G92 E0 ; reset extrusion distance
G1 X99.606 Y51.862 F7200.000 ; move to first infill point
G1 E3.00000 F2400.00000 ; unretract
