; generated by Slic3r Prusa Edition 1.41.1-beta+win64 on 2018-10-07 at 15:08:25

; ## Parametros optimizados por Hugo Antolini  -  2018-10-06 ##

; external perimeters extrusion width = 0.40mm
; perimeters extrusion width = 0.40mm
; infill extrusion width = 0.40mm
; solid infill extrusion width = 0.40mm
; top infill extrusion width = 0.40mm
; first layer extrusion width = 0.45mm

M201 X9000 Y9000 Z500 E10000 ; sets maximum accelerations, mm/sec^2
M203 X500 Y500 Z12 E120 ; sets maximum feedrates, mm/sec
M204 P1500 R1500 T1500 ; sets acceleration (P, T) and retract acceleration (R), mm/sec^2
M205 X10.00 Y10.00 Z0.20 E2.50 ; sets the jerk limits, mm/sec
M205 S0 T0 ; sets the minimum extruding and travel feed rate, mm/sec
M107 ; disable fan
M190 S65 ; set bed temperature and wait for it to be reached
M104 S205 ; set temperature
G21  ;metric values
G90  ;absolute positioning
M82  ;set extruder to absolute mode
M107  ;start with the fan off

G28  ; home all axes

G1 Z15.0 F6000
G92 E0
G1 F200 E3
G92 E0

; G0 X5 Y15 Z5 F9000  ;Move to front
; G0 Z0.15  ;Drop to bed
; G92 E0  ;Zero Extruder Length
; G1 X40 E25 F500  ;Extrude 25mm of filament in 4cm line
; G92 E0  ;Zero the extruded lenght
; G1 E-1 F500  ;Retract a little
; G1 X80 F4000  ;Quickly wipe away from filament line
; G1 Z0.3  ;Raise and begin printing
; Filament gcode
M109 S205 ; set temperature and wait for it to be reached
G21 ; set units to millimeters
G90 ; use absolute coordinates
M82 ; use absolute distances for extrusion
G92 E0 ; reset extrusion distance
G1 Z0.300 F7200.000 ; move to next layer (0)
G1 E-3.00000 F2400.00000 ; retract
G92 E0 ; reset extrusion distance
G1 X28.061 Y37.950 F7200.000 ; move to first skirt point
G1 E3.00000 F2400.00000 ; unretract
G1 F900
G1 X28.921 Y37.329 E3.05104 ; skirt
G1 X29.926 Y36.974 E3.10230 ; skirt
G1 X30.652 Y36.902 E3.13739 ; skirt
G1 X89.656 Y36.902 E5.97527 ; skirt
G1 X90.363 Y36.969 E6.00944 ; skirt
G1 X91.045 Y37.169 E6.04361 ; skirt
G1 X91.676 Y37.495 E6.07777 ; skirt
G1 X92.235 Y37.934 E6.11194 ; skirt
G1 X92.700 Y38.471 E6.14610 ; skirt
G1 X93.055 Y39.087 E6.18027 ; skirt
G1 X93.287 Y39.758 E6.21444 ; skirt
G1 X93.387 Y40.461 E6.24860 ; skirt
G1 X93.391 Y48.680 E6.64390 ; skirt
G1 X93.277 Y49.554 E6.68628 ; skirt
G1 X92.881 Y50.523 E6.73664 ; skirt
G1 X92.231 Y51.343 E6.78700 ; skirt
G1 X91.378 Y51.952 E6.83735 ; skirt
G1 X90.386 Y52.300 E6.88794 ; skirt
G1 X89.659 Y52.372 E6.92307 ; skirt
G1 X30.484 Y52.368 E9.76917 ; skirt
G1 X29.870 Y52.288 E9.79899 ; skirt
G1 X29.281 Y52.110 E9.82858 ; skirt
G1 X28.725 Y51.834 E9.85840 ; skirt
G1 X28.223 Y51.471 E9.88822 ; skirt
G1 X27.788 Y51.029 E9.91804 ; skirt
G1 X27.431 Y50.522 E9.94786 ; skirt
G1 X27.164 Y49.963 E9.97768 ; skirt
G1 X26.993 Y49.367 E10.00750 ; skirt
G1 X26.921 Y48.670 E10.04121 ; skirt
G1 X26.921 Y40.627 E10.42801 ; skirt
G1 X27.022 Y39.776 E10.46926 ; skirt
G1 X27.410 Y38.788 E10.52030 ; skirt
G1 X28.024 Y37.998 E10.56845 ; skirt
G1 X28.320 Y38.236 F7200.000 ; move to first skirt point
G1 F900
G1 X29.109 Y37.666 E10.61526 ; skirt
G1 X30.024 Y37.347 E10.66185 ; skirt
G1 X30.653 Y37.287 E10.69225 ; skirt
G1 X89.656 Y37.287 E13.53010 ; skirt
G1 X90.290 Y37.348 E13.56071 ; skirt
G1 X90.905 Y37.529 E13.59155 ; skirt
G1 X91.470 Y37.821 E13.62216 ; skirt
G1 X91.974 Y38.218 E13.65300 ; skirt
G1 X92.389 Y38.700 E13.68362 ; skirt
G1 X92.708 Y39.257 E13.71445 ; skirt
G1 X92.914 Y39.859 E13.74507 ; skirt
G1 X93.003 Y40.494 E13.77590 ; skirt
G1 X93.006 Y48.669 E14.16908 ; skirt
G1 X92.916 Y49.408 E14.20489 ; skirt
G1 X92.566 Y50.297 E14.25084 ; skirt
G1 X91.976 Y51.053 E14.29700 ; skirt
G1 X91.195 Y51.612 E14.34316 ; skirt
G1 X90.288 Y51.926 E14.38932 ; skirt
G1 X89.659 Y51.987 E14.41974 ; skirt
G1 X30.516 Y51.984 E17.26431 ; skirt
G1 X29.424 Y51.752 E17.31799 ; skirt
G1 X28.469 Y51.174 E17.37167 ; skirt
G1 X27.757 Y50.315 E17.42536 ; skirt
G1 X27.367 Y49.269 E17.47904 ; skirt
G1 X27.307 Y48.663 E17.50836 ; skirt
G1 X27.307 Y40.632 E17.89458 ; skirt
G1 X27.386 Y39.910 E17.92952 ; skirt
G1 X27.731 Y39.005 E17.97612 ; skirt
G1 X28.284 Y38.284 E18.01982 ; skirt
G1 X30.112 Y37.723 F7200.000 ; move to first skirt point
G1 F900
G1 X89.656 Y37.673 E20.88369 ; skirt
G1 X90.218 Y37.727 E20.91086 ; skirt
G1 X90.760 Y37.886 E20.93802 ; skirt
G1 X91.262 Y38.146 E20.96519 ; skirt
G1 X91.709 Y38.498 E20.99256 ; skirt
G1 X92.079 Y38.930 E21.01993 ; skirt
G1 X92.359 Y39.421 E21.04710 ; skirt
G1 X92.541 Y39.956 E21.07426 ; skirt
G1 X92.618 Y40.519 E21.10163 ; skirt
G1 X92.620 Y48.658 E21.49308 ; skirt
G1 X92.552 Y49.270 E21.52269 ; skirt
G1 X92.246 Y50.079 E21.56428 ; skirt
G1 X91.720 Y50.765 E21.60586 ; skirt
G1 X91.018 Y51.270 E21.64744 ; skirt
G1 X90.200 Y51.551 E21.68903 ; skirt
G1 X30.546 Y51.599 E24.55821 ; skirt
G1 X29.572 Y51.396 E24.60606 ; skirt
G1 X28.720 Y50.881 E24.65391 ; skirt
G1 X28.087 Y50.114 E24.70176 ; skirt
G1 X27.743 Y49.181 E24.74960 ; skirt
G1 X27.692 Y40.633 E25.16075 ; skirt
G1 X27.753 Y40.037 E25.18955 ; skirt
G1 X28.054 Y39.218 E25.23154 ; skirt
G1 X28.580 Y38.521 E25.27353 ; skirt
G1 X29.287 Y38.008 E25.31551 ; skirt
G1 X30.055 Y37.743 E25.35462 ; skirt
G1 X30.179 Y38.107 F7200.000 ; move to first skirt point
G1 F900
G1 X89.656 Y38.059 E28.21526 ; skirt
G1 X90.620 Y38.245 E28.26248 ; skirt
G1 X91.447 Y38.782 E28.30989 ; skirt
G1 X92.011 Y39.586 E28.35711 ; skirt
G1 X92.233 Y40.546 E28.40452 ; skirt
G1 X92.185 Y49.141 E28.81794 ; skirt
G1 X91.923 Y49.866 E28.85501 ; skirt
G1 X91.461 Y50.478 E28.89188 ; skirt
G1 X90.836 Y50.930 E28.92895 ; skirt
G1 X90.110 Y51.175 E28.96583 ; skirt
G1 X30.569 Y51.214 E31.82955 ; skirt
G1 X29.715 Y51.037 E31.87151 ; skirt
G1 X28.968 Y50.586 E31.91347 ; skirt
G1 X28.415 Y49.911 E31.95544 ; skirt
G1 X28.118 Y49.091 E31.99740 ; skirt
G1 X28.123 Y40.156 E32.42714 ; skirt
G1 X28.380 Y39.425 E32.46439 ; skirt
G1 X28.843 Y38.804 E32.50165 ; skirt
G1 X29.469 Y38.348 E32.53890 ; skirt
G1 X30.122 Y38.126 E32.57208 ; skirt
G1 X30.245 Y38.489 F7200.000 ; move to first skirt point
G1 F900
G1 X30.283 Y38.476 E32.57402 ; skirt
G1 X89.656 Y38.444 E35.42967 ; skirt
G1 X90.477 Y38.604 E35.46989 ; skirt
G1 X91.181 Y39.061 E35.51029 ; skirt
G1 X91.662 Y39.750 E35.55068 ; skirt
G1 X91.848 Y40.569 E35.59108 ; skirt
G1 X91.815 Y49.019 E35.99749 ; skirt
G1 X91.601 Y49.650 E36.02957 ; skirt
G1 X91.204 Y50.191 E36.06182 ; skirt
G1 X90.665 Y50.584 E36.09389 ; skirt
G1 X90.029 Y50.798 E36.12614 ; skirt
G1 X30.594 Y50.829 E38.98478 ; skirt
G1 X29.862 Y50.681 E39.02068 ; skirt
G1 X29.220 Y50.294 E39.05675 ; skirt
G1 X28.746 Y49.713 E39.09282 ; skirt
G1 X28.495 Y49.010 E39.12871 ; skirt
G1 X28.494 Y40.269 E39.54912 ; skirt
G1 X28.707 Y39.633 E39.58137 ; skirt
G1 X29.104 Y39.088 E39.61379 ; skirt
G1 X29.644 Y38.692 E39.64604 ; skirt
G1 X30.188 Y38.508 E39.67364 ; skirt
; PURGING FINISHED
G1 E36.67364 F2400.00000 ; retract
G92 E0 ; reset extrusion distance
G1 X33.546 Y42.026 F7200.000 ; move to first perimeter point
G1 E3.00000 F2400.00000 ; unretract
G1 F900
G1 X43.257 Y42.026 E3.46708 ; perimeter
G1 X43.257 Y47.748 E3.74225 ; perimeter
G1 X33.546 Y47.748 E4.20933 ; perimeter
G1 X33.546 Y42.086 E4.48161 ; perimeter
G1 X33.931 Y42.412 F7200.000 ; move to first perimeter point
G1 F900
G1 X42.871 Y42.412 E4.91160 ; perimeter
G1 X42.871 Y47.362 E5.14967 ; perimeter
G1 X33.931 Y47.362 E5.57966 ; perimeter
G1 X33.931 Y42.472 E5.81485 ; perimeter
G1 X33.792 Y42.037 F7200.000 ; move inwards before travel
G1 E2.81485 F2400.00000 ; retract
G92 E0 ; reset extrusion distance
G1 X77.046 Y42.472 F7200.000 ; move to first perimeter point
G1 E3.00000 F2400.00000 ; unretract
G1 F900
G1 X77.046 Y42.026 E3.02143 ; perimeter
G1 X86.767 Y42.026 E3.48899 ; perimeter
G1 X86.767 Y47.748 E3.76416 ; perimeter
G1 X77.046 Y47.748 E4.23172 ; perimeter
G1 X77.046 Y42.532 E4.48257 ; perimeter
G1 X77.431 Y42.532 F7200.000 ; move to first perimeter point
G1 F900
G1 X77.431 Y42.412 E4.48835 ; perimeter
G1 X86.381 Y42.412 E4.91881 ; perimeter
G1 X86.381 Y47.362 E5.15689 ; perimeter
G1 X77.431 Y47.362 E5.58735 ; perimeter
G1 X77.431 Y42.592 E5.81677 ; perimeter
G1 X77.313 Y42.512 F7200.000 ; move inwards before travel
G1 E2.81677 F2400.00000 ; retract
G92 E0 ; reset extrusion distance
G1 X35.977 Y48.026 F7200.000 ; move to first perimeter point
G1 E3.00000 F2400.00000 ; unretract
G1 F900
G1 X31.267 Y48.026 E3.22654 ; perimeter
G1 X31.267 Y41.248 E3.55258 ; perimeter
G1 X89.046 Y41.248 E6.33154 ; perimeter
G1 X89.046 Y48.026 E6.65757 ; perimeter
G1 X36.037 Y48.026 E9.20711 ; perimeter
G1 X36.037 Y48.412 F7200.000 ; move to first perimeter point
G1 F900
G1 X30.881 Y48.412 E9.45508 ; perimeter
G1 X30.881 Y40.862 E9.81821 ; perimeter
G1 X89.431 Y40.862 E12.63427 ; perimeter
G1 X89.431 Y48.412 E12.99739 ; perimeter
G1 X36.097 Y48.412 E15.56259 ; perimeter
G1 X35.821 Y48.075 F7200.000 ; move inwards before travel
G1 E12.56259 F2400.00000 ; retract
G92 E0 ; reset extrusion distance
G1 X31.267 Y47.243 F7200.000 ; move to first infill point
G1 E3.00000 F2400.00000 ; unretract
G1 F900
G1 X31.876 Y47.853 E3.04164 ; infill
G1 X32.424 Y47.853 E3.06810 ; infill
G1 X31.440 Y46.869 E3.13531 ; infill
G1 X31.440 Y46.321 E3.16177 ; infill
G1 X32.972 Y47.853 E3.26639 ; infill
G1 X33.372 Y47.853 E3.28573 ; infill
G1 X33.372 Y47.705 E3.29285 ; infill
G1 X31.440 Y45.774 E3.42483 ; infill
G1 X31.440 Y45.226 E3.45129 ; infill
G1 X33.372 Y47.158 E3.58326 ; infill
G1 X33.372 Y46.610 E3.60973 ; infill
G1 X31.440 Y44.678 E3.74170 ; infill
G1 X31.440 Y44.130 E3.76816 ; infill
G1 X33.372 Y46.062 E3.90014 ; infill
G1 X33.372 Y45.514 E3.92660 ; infill
G1 X31.440 Y43.583 E4.05857 ; infill
G1 X31.440 Y43.035 E4.08503 ; infill
G1 X33.372 Y44.967 E4.21701 ; infill
G1 X33.372 Y44.419 E4.24347 ; infill
G1 X31.440 Y42.487 E4.37544 ; infill
G1 X31.440 Y41.939 E4.40190 ; infill
G1 X33.372 Y43.871 E4.53388 ; infill
G1 X33.372 Y43.323 E4.56034 ; infill
G1 X31.470 Y41.421 E4.69030 ; infill
G1 X32.018 Y41.421 E4.71676 ; infill
G1 X33.372 Y42.776 E4.80930 ; infill
G1 X33.372 Y42.228 E4.83576 ; infill
G1 X32.565 Y41.421 E4.89088 ; infill
G1 X33.113 Y41.421 E4.91734 ; infill
G1 X33.353 Y41.661 E4.93372 ; infill
G1 X33.353 Y41.637 F7200.000 ; move to first infill point
G1 F900
G1 X43.450 Y41.637 E5.42882 ; infill
G1 E2.42882 F2400.00000 ; retract
G92 E0 ; reset extrusion distance
G1 X44.100 Y48.026 F7200.000 ; move to first infill point
G1 E3.00000 F2400.00000 ; unretract
G1 F900
G1 X43.430 Y47.356 E3.04578 ; infill
G1 X43.430 Y46.809 E3.07224 ; infill
G1 X44.475 Y47.853 E3.14358 ; infill
G1 X45.022 Y47.853 E3.17004 ; infill
G1 X43.430 Y46.261 E3.27880 ; infill
G1 X43.430 Y45.713 E3.30526 ; infill
G1 X45.570 Y47.853 E3.45145 ; infill
G1 X46.118 Y47.853 E3.47791 ; infill
G1 X43.430 Y45.165 E3.66152 ; infill
G1 X43.430 Y44.618 E3.68798 ; infill
G1 X46.666 Y47.853 E3.90900 ; infill
G1 X47.213 Y47.853 E3.93547 ; infill
G1 X43.430 Y44.070 E4.19391 ; infill
G1 X43.430 Y43.522 E4.22038 ; infill
G1 X47.761 Y47.853 E4.51625 ; infill
G1 X48.309 Y47.853 E4.54271 ; infill
G1 X43.430 Y42.974 E4.87600 ; infill
G1 X43.430 Y42.427 E4.90246 ; infill
G1 X48.857 Y47.853 E5.27318 ; infill
G1 X49.404 Y47.853 E5.29964 ; infill
G1 X43.591 Y42.039 E5.69681 ; infill
G1 X43.623 Y42.039 E5.69838 ; infill
G1 X43.623 Y41.524 E5.72328 ; infill
G1 X49.952 Y47.853 E6.15566 ; infill
G1 X50.500 Y47.853 E6.18212 ; infill
G1 X44.068 Y41.421 E6.62153 ; infill
G1 X44.616 Y41.421 E6.64799 ; infill
G1 X51.048 Y47.853 E7.08740 ; infill
G1 X51.595 Y47.853 E7.11386 ; infill
G1 X45.164 Y41.421 E7.55327 ; infill
G1 X45.711 Y41.421 E7.57973 ; infill
G1 X52.143 Y47.853 E8.01914 ; infill
G1 X52.691 Y47.853 E8.04560 ; infill
G1 X46.259 Y41.421 E8.48501 ; infill
G1 X46.807 Y41.421 E8.51147 ; infill
G1 X53.239 Y47.853 E8.95088 ; infill
G1 X53.786 Y47.853 E8.97734 ; infill
G1 X47.355 Y41.421 E9.41675 ; infill
G1 X47.902 Y41.421 E9.44321 ; infill
G1 X54.334 Y47.853 E9.88262 ; infill
G1 X54.882 Y47.853 E9.90908 ; infill
G1 X48.450 Y41.421 E10.34848 ; infill
G1 X48.998 Y41.421 E10.37495 ; infill
G1 X55.430 Y47.853 E10.81435 ; infill
G1 X55.977 Y47.853 E10.84082 ; infill
G1 X49.546 Y41.421 E11.28022 ; infill
G1 X50.093 Y41.421 E11.30668 ; infill
G1 X56.525 Y47.853 E11.74609 ; infill
G1 X57.073 Y47.853 E11.77255 ; infill
G1 X50.641 Y41.421 E12.21196 ; infill
G1 X51.189 Y41.421 E12.23842 ; infill
G1 X57.621 Y47.853 E12.67783 ; infill
G1 X58.168 Y47.853 E12.70429 ; infill
G1 X51.737 Y41.421 E13.14370 ; infill
G1 X52.284 Y41.421 E13.17016 ; infill
G1 X58.716 Y47.853 E13.60957 ; infill
G1 X59.264 Y47.853 E13.63603 ; infill
G1 X52.832 Y41.421 E14.07544 ; infill
G1 X53.380 Y41.421 E14.10190 ; infill
G1 X59.812 Y47.853 E14.54131 ; infill
G1 X60.359 Y47.853 E14.56777 ; infill
G1 X53.928 Y41.421 E15.00718 ; infill
G1 X54.475 Y41.421 E15.03364 ; infill
G1 X60.907 Y47.853 E15.47305 ; infill
G1 X61.455 Y47.853 E15.49951 ; infill
G1 X55.023 Y41.421 E15.93891 ; infill
G1 X55.571 Y41.421 E15.96538 ; infill
G1 X62.003 Y47.853 E16.40478 ; infill
G1 X62.550 Y47.853 E16.43125 ; infill
G1 X56.119 Y41.421 E16.87065 ; infill
G1 X56.666 Y41.421 E16.89711 ; infill
G1 X63.098 Y47.853 E17.33652 ; infill
G1 X63.646 Y47.853 E17.36298 ; infill
G1 X57.214 Y41.421 E17.80239 ; infill
G1 X57.762 Y41.421 E17.82885 ; infill
G1 X64.194 Y47.853 E18.26826 ; infill
G1 X64.741 Y47.853 E18.29472 ; infill
G1 X58.310 Y41.421 E18.73413 ; infill
G1 X58.857 Y41.421 E18.76059 ; infill
G1 X65.289 Y47.853 E19.20000 ; infill
G1 X65.837 Y47.853 E19.22646 ; infill
G1 X59.405 Y41.421 E19.66587 ; infill
G1 X59.953 Y41.421 E19.69233 ; infill
G1 X66.385 Y47.853 E20.13174 ; infill
G1 X66.932 Y47.853 E20.15820 ; infill
G1 X60.501 Y41.421 E20.59761 ; infill
G1 X61.048 Y41.421 E20.62407 ; infill
G1 X67.480 Y47.853 E21.06348 ; infill
G1 X68.028 Y47.853 E21.08994 ; infill
G1 X61.596 Y41.421 E21.52935 ; infill
G1 X62.144 Y41.421 E21.55581 ; infill
G1 X68.576 Y47.853 E21.99521 ; infill
G1 X69.123 Y47.853 E22.02168 ; infill
G1 X62.692 Y41.421 E22.46108 ; infill
G1 X63.239 Y41.421 E22.48754 ; infill
G1 X69.671 Y47.853 E22.92695 ; infill
G1 X70.219 Y47.853 E22.95341 ; infill
G1 X63.787 Y41.421 E23.39282 ; infill
G1 X64.335 Y41.421 E23.41928 ; infill
G1 X70.767 Y47.853 E23.85869 ; infill
G1 X71.314 Y47.853 E23.88515 ; infill
G1 X64.883 Y41.421 E24.32456 ; infill
G1 X65.430 Y41.421 E24.35102 ; infill
G1 X71.862 Y47.853 E24.79043 ; infill
G1 X72.410 Y47.853 E24.81689 ; infill
G1 X65.978 Y41.421 E25.25630 ; infill
G1 X66.526 Y41.421 E25.28276 ; infill
G1 X72.958 Y47.853 E25.72217 ; infill
G1 X73.505 Y47.853 E25.74863 ; infill
G1 X67.074 Y41.421 E26.18804 ; infill
G1 X67.621 Y41.421 E26.21450 ; infill
G1 X74.053 Y47.853 E26.65391 ; infill
G1 X74.601 Y47.853 E26.68037 ; infill
G1 X68.169 Y41.421 E27.11978 ; infill
G1 X68.717 Y41.421 E27.14624 ; infill
G1 X75.149 Y47.853 E27.58564 ; infill
G1 X75.696 Y47.853 E27.61211 ; infill
G1 X69.265 Y41.421 E28.05151 ; infill
G1 X69.812 Y41.421 E28.07798 ; infill
G1 X76.244 Y47.853 E28.51738 ; infill
G1 X76.792 Y47.853 E28.54384 ; infill
G1 X70.360 Y41.421 E28.98325 ; infill
G1 X70.908 Y41.421 E29.00971 ; infill
G1 X76.872 Y47.385 E29.41718 ; infill
G1 X76.872 Y46.837 E29.44364 ; infill
G1 X71.456 Y41.421 E29.81368 ; infill
G1 X72.003 Y41.421 E29.84014 ; infill
G1 X76.872 Y46.290 E30.17276 ; infill
G1 X76.872 Y45.742 E30.19922 ; infill
G1 X72.551 Y41.421 E30.49441 ; infill
G1 X73.099 Y41.421 E30.52087 ; infill
G1 X76.872 Y45.194 E30.77865 ; infill
G1 X76.872 Y44.646 E30.80511 ; infill
G1 X73.647 Y41.421 E31.02546 ; infill
G1 X74.194 Y41.421 E31.05193 ; infill
G1 X76.872 Y44.099 E31.23486 ; infill
G1 X76.872 Y43.551 E31.26132 ; infill
G1 X74.742 Y41.421 E31.40683 ; infill
G1 X75.290 Y41.421 E31.43329 ; infill
G1 X76.872 Y43.003 E31.54138 ; infill
G1 X76.872 Y42.455 E31.56784 ; infill
G1 X75.838 Y41.421 E31.63851 ; infill
G1 X76.385 Y41.421 E31.66497 ; infill
G1 X77.046 Y42.081 E31.71007 ; infill
G1 X76.853 Y41.637 F7200.000 ; move to first infill point
G1 F900
G1 X86.960 Y41.637 E32.20566 ; infill
G1 E29.20566 F2400.00000 ; retract
G92 E0 ; reset extrusion distance
